!!!!SEGMENT: pl-cz--iii-672--002_lscigalski-franciszek--tria-gradualia-tantum-ergo.krn
!!!cenid: 18xx:1076
!!!COM: Ścigalski, Franciszek
!!!COM-rismid: pe30002948
!!!CDT: 1782/01/29-1846/09/27
!!!CNT: Polish
!!!GTL: Tria Gradualia
!!!OTL: Tantum ergo
!!!PDT:
!!!AGN: Sacred
!!!SMS-siglum: PL-CZ
!!!SMS-shelfmark: III-672
!!!SMS-shelfwork: 002 G
!!!SMS-variant:
!!!SMS-altvar:
!!!NIFC-rismid: 300001309
!!!URL-scan: http://repozytorium.nifc.pl/skany/pl-cz-nut--iii-672
!!!ONB-nifc:
**kern	**fba	**dynam	**kern	**dynam	**kern	**fing	**dynam	**kern	**fing	**dynam	**kern	**text	**dynam	**kern	**text	**dynam	**kern	**text	**dynam	**kern	**text	**dynam	**kern	**dynam	**kern	**dynam	**kern	**dynam	**kern	**dynam	**kern	**dynam	**kern	**dynam	**kern	**dynam	**kern	**kern
*	*	*	*group4	*	*group4	*	*	*group4	*	*	*group3	*	*	*group3	*	*	*group3	*	*	*group3	*	*	*	*	*group2	*	*group2	*	*group2	*	*group2	*	*group1	*	*group1	*	*group1	*group1
*part17	*	*part17	*part16	*part16	*part15	*	*part15	*part14	*	*part14	*part13	*part13	*part13	*part12	*part12	*part12	*part11	*part11	*part11	*part10	*part10	*part10	*part9	*part9	*part8	*part8	*part7	*part7	*part6	*part6	*part5	*part5	*part4	*part4	*part3	*part3	*part2	*part1
*staff17	*	*	*staff16	*	*staff15	*	*	*staff14	*	*	*staff13	*staff13	*	*staff12	*staff12	*	*staff11	*staff11	*	*staff10	*staff10	*	*staff9	*	*staff8	*	*staff7	*	*staff6	*	*staff5	*	*staff4	*	*staff3	*	*staff2	*staff1
*I"Organo.	*	*	*I"Viola.	*	*I"Violin 2.do	*	*	*I"Violin 1mo	*	*	*I"Basſo.	*	*	*I"Tenore	*	*	*I"Alto.	*	*	*I"Canto	*	*	*I"Tympani	*	*I"Clarino 2do	*	*I"Clarino 1mo	*	*I"Corno 2do	*	*I"Corno 1mo	*	*I"Clarinetto 2do	*	*I"Clarinetto 1mo	*	*I"Flauto 2do	*I"Flauto 1mo
*I'org	*	*	*I'vla	*	*I'vl 2	*	*	*I'vl 1	*	*	*I'B	*	*	*I'T	*	*	*I'A	*	*	*I'S	*	*	*I'timp	*	*I'clar 2	*	*I'clar 1	*	*I'cor 2	*	*I'cor 1	*	*I'cl 2	*	*I'cl 1	*	*I'fl 2	*I'fl 1
*Iorgano	*	*	*Iviola	*	*Ivioln	*	*	*Ivioln	*	*	*Ibass	*	*	*Itenor	*	*	*Ialto	*	*	*Isoprn	*	*	*Itimpa	*	*Itromp	*	*Itromp	*	*Icor	*	*Icor	*	*Iclars	*	*Iclars	*	*Iflt	*Iflt
*ICklav	*	*	*ICstr	*	*ICstr	*	*	*ICstr	*	*	*ICvox	*	*	*ICvox	*	*	*ICvox	*	*	*ICvox	*	*	*ICidio	*	*ICbras	*	*ICbras	*	*ICbras	*	*ICbras	*	*ICww	*	*ICww	*	*ICww	*ICww
*IGcont	*	*	*	*	*	*	*	*	*	*	*IGcoro	*	*	*IGcoro	*	*	*IGcoro	*	*	*IGcoro	*	*	*	*	*	*	*	*	*	*	*	*	*	*	*	*	*	*
*clefF4	*	*	*clefC3	*	*clefG2	*	*	*clefG2	*	*	*clefF4	*	*	*clefC4	*	*	*clefC3	*	*	*clefC1	*	*	*clefF4	*	*clefG2	*	*clefG2	*	*clefG2	*	*clefG2	*	*clefG2	*	*clefG2	*	*clefG2	*clefG2
*	*	*	*	*	*	*	*	*	*	*	*	*	*	*	*	*	*	*	*	*	*	*	*ITrd-1c-2	*	*ITrd-1c-2	*	*ITrd-1c-2	*	*ITrd6c10	*	*ITrd6c10	*	*ITrd2c3	*	*ITrd2c3	*	*	*
*k[f#c#]	*	*	*k[f#c#]	*	*k[f#c#]	*	*	*k[f#c#]	*	*	*k[f#c#]	*	*	*k[f#c#]	*	*	*k[f#c#]	*	*	*k[f#c#]	*	*	*k[f#c#]	*	*k[f#c#]	*	*k[f#c#]	*	*k[f#c#]	*	*k[f#c#]	*	*k[f#c#]	*	*k[f#c#]	*	*k[f#c#]	*k[f#c#]
*D:	*	*	*D:	*	*D:	*	*	*D:	*	*	*D:	*	*	*D:	*	*	*D:	*	*	*D:	*	*	*D:	*	*D:	*	*D:	*	*D:	*	*D:	*	*D:	*	*D:	*	*D:	*D:
*M3/4	*	*	*M3/4	*	*M3/4	*	*	*M3/4	*	*	*M3/4	*	*	*M3/4	*	*	*M3/4	*	*	*M3/4	*	*	*M3/4	*	*M3/4	*	*M3/4	*	*M3/4	*	*M3/4	*	*M3/4	*	*M3/4	*	*M3/4	*M3/4
=1	=1	=1	=1	=1	=1	=1	=1	=1	=1	=1	=1	=1	=1	=1	=1	=1	=1	=1	=1	=1	=1	=1	=1	=1	=1	=1	=1	=1	=1	=1	=1	=1	=1	=1	=1	=1	=1	=1
*	*	*	*	*	*	*	*	*	*	*	*	*	*	*	*	*	*	*	*^	*	*	*	*	*	*	*	*	*	*	*	*	*	*	*	*	*	*	*
*	*	*	*2\right	*	*tremolo	*	*	*	*	*	*	*	*	*	*	*	*	*	*	*	*	*	*	*	*	*	*	*	*	*	*	*	*	*	*	*	*	*	*
*tremolo	*	*	*tremolo	*	*	*	*	*tremolo	*	*below	*	*	*	*2\right	*	*	*	*	*	*	*	*	*	*	*	*	*	*	*	*	*	*	*	*	*	*	*	*	*
!	!	!	!	!	!	!	!	!LO:TX:a:t=Nro 2\nGraduale.\nAndantino.	!	!	!	!	!	!LO:TX:t=P:problem:kolejność znaków c# F#	!	!	!	!	!	!	!LO:TX:t=P:problem:kolejność znaków cc# f#	!	!	!LO:TX:a:t=7.	!	!LO:TX:a:t=7.	!	!LO:TX:a:t=7.	!	!LO:TX:a:t=Nro 2.	!	!LO:TX:a:i:t=Nro 2.	!	!LO:TX:a:t=7.	!	!LO:TX:a:t=7.	!	!	!
!	!	!	!	!	!	!	!	!LO:TX:b:t=......	!	!	!LO:TX:a:i:t=Andantino.	!	!	!LO:TX:a:i:t=Andantino	!	!	!LO:TX:a:t=Andantino	!	!	!	!LO:TX:a:t=Andantino	!	!	!LO:TX:a:i:t=Nro 2.	!	!LO:TX:a:i:t=Nro 2.	!	!LO:TX:a:t=Nro 2.	!	!LO:TX:a:t=7.	!	!LO:TX:i:a:t=Andantino in D.	!	!LO:TX:a:t=Nro 2.	!	!LO:TX:a:i:t=Nro 2.	!	!	!
!LO:TX:a:i:t=Nro 2\nGraduale\nAndantino.	!	!	!LO:TX:i:a:t=Andantino\nNo 2.	!LO:DY:rj	!LO:TX:a:t=Nro 2.\nGraduale.\nAndantino	!	!LO:DY:rj	!	!	!LO:DY:rj:t=p&colon;	!LO:TX:a:i:t=Nro 2.	!	!LO:DY:rj:t=mfr.	!LO:TX:a:i:t=Nro 2.	!	!LO:DY:rj:t=mfr.	!LO:TX:a:t=Nro 2	!	!LO:DY:b:rj:t=mfr	!LO:DY:a:rj:t=mfr.	!LO:TX:a:t=Nro 2	!	!LO:DY:a:t=mfr.	!LO:TX:a:i:t=Andantino in D. A.	!	!LO:TX:a:i:t=Andantino in D.	!	!LO:TX:a:i:t=Andantino in D.	!	!LO:TX:a:i:t=Andantino in D.	!	!LO:TX:a:t=7.	!	!LO:TX:i:a:t=Andantino Clarin in A.	!	!LO:TX:a:i:t=Andantino Clari in A.	!	!LO:TX:a:i:t=Gradualia Nro 1 et 2. tacent.	!LO:TX:a:i:t=Gradualia Nro 1 et 2. tacent.
8D/L	3	mf	8d\L	p	8A/L	.	mf	8f#'/L	.	p	2D/	Tan-	mf	2d\	Tan-	mf	2A/	Tan-	mf	mf	2f#/	Tan-	mf	0.r	.	0.r	.	0.r	.	0.r	.	0.r	.	0.r	.	0.r	.	2.ryy	2.ryy
8D/	.	.	8d\	.	8A/	.	.	8f#'/	.	.	.	.	.	.	.	.	.	.	.	.	.	.	.	.	.	.	.	.	.	.	.	.	.	.	.	.	.	.	.
8D/	.	.	8d\	.	8A/	.	.	8f#'/	.	.	.	.	.	.	.	.	.	.	.	.	.	.	.	.	.	.	.	.	.	.	.	.	.	.	.	.	.	.	.
8D/J	.	.	8d\	.	8A/J	.	.	8f#'/	.	.	.	.	.	.	.	.	.	.	.	.	.	.	.	.	.	.	.	.	.	.	.	.	.	.	.	.	.	.	.
*Xtremolo	*	*	*	*	*Xtremolo	*	*	*	*	*	*	*	*	*	*	*	*	*	*	*	*	*	*	*	*	*	*	*	*	*	*	*	*	*	*	*	*	*	*
8Cn/L	4	.	8d\	.	8d/L	.	.	8f#'/	.	.	4Cn/	-tum	.	4d\	-tum	.	4d\	-tum	.	.	4f#/	-tum	.	.	.	.	.	.	.	.	.	.	.	.	.	.	.	.	.
8C/J	.	.	8d\J	.	8d/J	.	.	8f#'/J	.	.	.	.	.	.	.	.	.	.	.	.	.	.	.	.	.	.	.	.	.	.	.	.	.	.	.	.	.	.	.
*	*	*	*	*	*	*	*	*	*	*	*	*	*	*	*	*	*	*	*v	*v	*	*	*	*	*	*	*	*	*	*	*	*	*	*	*	*	*	*	*
=2	=2	=2	=2	=2	=2	=2	=2	=2	=2	=2	=2	=2	=2	=2	=2	=2	=2	=2	=2	=2	=2	=2	=2	=2	=2	=2	=2	=2	=2	=2	=2	=2	=2	=2	=2	=2	=2	=2
*tremolo	*	*	*	*	*tremolo	*	*	*	*	*	*	*	*	*	*	*	*2\right	*	*	*2\right	*	*	*	*	*	*	*	*	*	*	*	*	*	*	*	*	*	*
!	!	!	!	!	!LO:TX:b:t=....	!	!	!LO:TX:b:t=....	!	!	!	!	!	!	!	!	!	!	!	!	!	!	!	!	!	!	!	!	!	!	!	!	!	!	!	!	!	!
8BB/L	6	.	8d\L	.	8d'/L	.	.	8g'/L	.	.	2BB/	er-	.	2d\	er-	.	2d\	er-	.	2g\	er-	.	.	.	.	.	.	.	.	.	.	.	.	.	.	.	2.ryy	2.ryy
8BB/	.	.	8d\	.	8d'/	.	.	8g'/	.	.	.	.	.	.	.	.	.	.	.	.	.	.	.	.	.	.	.	.	.	.	.	.	.	.	.	.	.	.
8BB/	.	.	8d\	.	8d'/	.	.	8g'/	.	.	.	.	.	.	.	.	.	.	.	.	.	.	.	.	.	.	.	.	.	.	.	.	.	.	.	.	.	.
8BB/J	.	.	8d\	.	8d'/J	.	.	8g'/J	.	.	.	.	.	.	.	.	.	.	.	.	.	.	.	.	.	.	.	.	.	.	.	.	.	.	.	.	.	.
*Xtremolo	*	*	*	*	*Xtremolo	*	*	*Xtremolo	*	*	*	*	*	*	*	*	*	*	*	*	*	*	*	*	*	*	*	*	*	*	*	*	*	*	*	*	*	*
8BB-X/L	6|	.	8d\	.	8fn/L	.	.	8g#X/L	.	.	4BB-X/	-go	.	4d\	-go	.	4fn\	-go	.	4g#X\	-go	.	.	.	.	.	.	.	.	.	.	.	.	.	.	.	.	.
8BB-/J	.	.	8d\J	.	8f/J	.	.	8g#/J	.	.	.	.	.	.	.	.	.	.	.	.	.	.	.	.	.	.	.	.	.	.	.	.	.	.	.	.	.	.
*	*	*	*Xtremolo	*	*	*	*	*	*	*	*	*	*	*	*	*	*	*	*	*	*	*	*	*	*	*	*	*	*	*	*	*	*	*	*	*	*	*
=3	=3	=3	=3	=3	=3	=3	=3	=3	=3	=3	=3	=3	=3	=3	=3	=3	=3	=3	=3	=3	=3	=3	=3	=3	=3	=3	=3	=3	=3	=3	=3	=3	=3	=3	=3	=3	=3	=3
8AA/L	8	.	8e\L	.	8c#/L	.	.	8a/L	.	.	(4AA/	sa-	.	(4e\	sa-	.	(4c#\	ſa-	.	(4a\	ſa-	.	.	.	.	.	.	.	.	.	.	.	.	.	.	.	2.ryy	2.ryy
8AA/	.	.	8e\	.	8c#/	.	.	8a/	.	.	.	.	.	.	.	.	.	.	.	.	.	.	.	.	.	.	.	.	.	.	.	.	.	.	.	.	.	.
8BBn/	6|	.	8d\	.	8d/	.	.	8g#X/	.	.	4BBn/)	.	.	4d\)	.	.	4d\)	.	.	4g#X\)	.	.	.	.	.	.	.	.	.	.	.	.	.	.	.	.	.	.
8BB/	.	.	8d\	.	8d/	.	.	8g#/	.	.	.	.	.	.	.	.	.	.	.	.	.	.	.	.	.	.	.	.	.	.	.	.	.	.	.	.	.	.
8C#/	5	.	8c#\	.	8e/	.	.	8gn/	.	.	4C#/	-cra-	.	4c#\	-cra-	.	4e\	-cra-	.	4gn\	-cra-	.	.	.	.	.	.	.	.	.	.	.	.	.	.	.	.	.
8C#/J	.	.	8c#\J	.	8e/J	.	.	8g/J	.	.	.	.	.	.	.	.	.	.	.	.	.	.	.	.	.	.	.	.	.	.	.	.	.	.	.	.	.	.
!LO:LB:g=original	!	!	!	!	!	!	!	!	!	!	!	!	!	!	!	!	!	!	!	!	!	!	!	!	!	!	!	!	!	!	!	!	!	!	!	!	!	!
=4	=4	=4	=4	=4	=4	=4	=4	=4	=4	=4	=4	=4	=4	=4	=4	=4	=4	=4	=4	=4	=4	=4	=4	=4	=4	=4	=4	=4	=4	=4	=4	=4	=4	=4	=4	=4	=4	=4
4D\	3_	.	4A/	.	4d/ 4A/	.	.	4f#/	.	.	4D/	-men-	.	4A\	-men-	.	4d\	-men-	.	4f#/	-men-	.	.	.	.	.	.	.	.	.	.	.	.	.	.	.	2.ryy	2.ryy
4D\	.	.	4A/	.	4d/ 4A/	.	.	8r	.	.	4D/	-tum	.	4A\	-tum,	.	4d\	-tum	.	4f#/	-tum	.	.	.	.	.	.	.	.	.	.	.	.	.	.	.	.	.
.	.	.	.	.	.	.	.	(8f#/L	.	.	.	.	.	.	.	.	.	.	.	.	.	.	.	.	.	.	.	.	.	.	.	.	.	.	.	.	.	.
4r	x	.	4r	.	4r	.	.	8d/	.	.	4r	.	.	4r	.	.	4r	.	.	4r	.	.	.	.	.	.	.	.	.	.	.	.	.	.	.	.	.	.
.	.	.	.	.	.	.	.	8f#/J)	.	.	.	.	.	.	.	.	.	.	.	.	.	.	.	.	.	.	.	.	.	.	.	.	.	.	.	.	.	.
!	!	!	!	!	!LO:LB:g=original	!	!	!LO:LB:g=original	!	!	!LO:LB:g=original	!	!	!LO:LB:g=original	!	!	!LO:LB:g=original	!	!	!LO:LB:g=original	!	!	!	!	!	!	!	!	!	!	!	!	!	!	!	!	!	!
=5	=5	=5	=5	=5	=5	=5	=5	=5	=5	=5	=5	=5	=5	=5	=5	=5	=5	=5	=5	=5	=5	=5	=5	=5	=5	=5	=5	=5	=5	=5	=5	=5	=5	=5	=5	=5	=5	=5
*tremolo	*	*	*tremolo	*	*tremolo	*	*	*tremolo	*	*	*2\right	*	*	*	*	*	*	*	*	*	*	*	*	*	*	*	*	*	*	*	*	*	*	*	*	*	*	*
!	!	!	!	!	!LO:TX:b:t=....	!	!	!LO:TX:b:t=....	!	!	!	!	!	!	!	!	!	!	!	!	!	!	!	!	!	!	!	!	!	!	!	!	!	!	!	!	!	!
8F#\L	#	.	8c#\L	.	8e/ 8c#'/L	.	.	8a#X'/L	.	.	2F#\	ve-	.	2c#\	ve-	.	2e\	ve-	.	2a#X\	ve-	.	1.r	.	1.r	.	1.r	.	1.r	.	1.r	.	1.r	.	1.r	.	2.ryy	2.ryy
8F#\	.	.	8c#\	.	8e/ 8c#'/	.	.	8a#X'/	.	.	.	.	.	.	.	.	.	.	.	.	.	.	.	.	.	.	.	.	.	.	.	.	.	.	.	.	.	.
8F#\	.	.	8c#\	.	8e/ 8c#'/	.	.	8a#X'/	.	.	.	.	.	.	.	.	.	.	.	.	.	.	.	.	.	.	.	.	.	.	.	.	.	.	.	.	.	.
8F#\J	.	.	8c#\J	.	8e/ 8c#'/J	.	.	8a#X'/J	.	.	.	.	.	.	.	.	.	.	.	.	.	.	.	.	.	.	.	.	.	.	.	.	.	.	.	.	.	.
*Xtremolo	*	*	*Xtremolo	*	*Xtremolo	*	*	*Xtremolo	*	*	*	*	*	*	*	*	*	*	*	*	*	*	*	*	*	*	*	*	*	*	*	*	*	*	*	*	*	*
8E\L	4#	.	8e\L	.	8c#/L	.	.	8f#/L	.	.	4E\	-ne-	.	4e\	-ne-	.	4c#\	-ne-	.	4f#/	-ne-	.	.	.	.	.	.	.	.	.	.	.	.	.	.	.	.	.
8E\J	.	.	8e\J	.	8c#/J	.	.	8f#/J	.	.	.	.	.	.	.	.	.	.	.	.	.	.	.	.	.	.	.	.	.	.	.	.	.	.	.	.	.	.
=6	=6	=6	=6	=6	=6	=6	=6	=6	=6	=6	=6	=6	=6	=6	=6	=6	=6	=6	=6	=6	=6	=6	=6	=6	=6	=6	=6	=6	=6	=6	=6	=6	=6	=6	=6	=6	=6	=6
8D/L	6	.	8d\L	.	8d/L	.	.	8b\L	.	.	(4D/	-re-	.	(4d\	-re-	.	(4d\	-re-	.	(4b\	-re-	.	.	.	.	.	.	.	.	.	.	.	.	.	.	.	2.ryy	2.ryy
8D/	.	.	8d\	.	8d/	.	.	8b\	.	.	.	.	.	.	.	.	.	.	.	.	.	.	.	.	.	.	.	.	.	.	.	.	.	.	.	.	.	.
8C#/	8	.	8c#\	.	8e/	.	.	8cc#\	.	.	4C#/)	.	.	4c#\)	.	.	4e\)	.	.	4cc#\)	.	.	.	.	.	.	.	.	.	.	.	.	.	.	.	.	.	.
8C#/	.	.	8c#\	.	8e/	.	.	8cc#\	.	.	.	.	.	.	.	.	.	.	.	.	.	.	.	.	.	.	.	.	.	.	.	.	.	.	.	.	.	.
8BB/	10_	.	8d\	.	8f#/	.	.	8dd\	.	.	4BB/	-mur	.	4d\	-mur	.	4f#\	-mur	.	4dd\	-mur	.	.	.	.	.	.	.	.	.	.	.	.	.	.	.	.	.
8BB/J	.	.	8d\J	.	8f#/J	.	.	8dd\J	.	.	.	.	.	.	.	.	.	.	.	.	.	.	.	.	.	.	.	.	.	.	.	.	.	.	.	.	.	.
!	!	!	!LO:LB:g=original	!	!	!	!	!	!	!	!	!	!	!	!	!	!	!	!	!	!	!	!	!	!	!	!	!	!	!	!	!	!	!	!	!	!	!
=7	=7	=7	=7	=7	=7	=7	=7	=7	=7	=7	=7	=7	=7	=7	=7	=7	=7	=7	=7	=7	=7	=7	=7	=7	=7	=7	=7	=7	=7	=7	=7	=7	=7	=7	=7	=7	=7	=7
*tremolo	*	*	*tremolo	*	*tremolo	*	*	*tremolo	*	*	*	*	*	*	*	*	*	*	*	*	*	*	*	*	*	*	*	*	*	*	*	*	*	*	*	*	*	*
8E\L	6 4	.	8e\L	.	8a/ 8e/L	.	.	8cc#\L	.	.	2E\	cer-	.	2e\	cer-	.	2a\	cer-	.	2cc#\	cer-	.	2.r	.	2.r	.	2.r	.	2.r	.	2.r	.	2.r	.	2.r	.	2.ryy	2.ryy
8E\	.	.	8e\	.	8a/ 8e/	.	.	8cc#\	.	.	.	.	.	.	.	.	.	.	.	.	.	.	.	.	.	.	.	.	.	.	.	.	.	.	.	.	.	.
8E\	.	.	8e\	.	8a/ 8e/	.	.	8cc#\	.	.	.	.	.	.	.	.	.	.	.	.	.	.	.	.	.	.	.	.	.	.	.	.	.	.	.	.	.	.
8E\J	.	.	8e\J	.	8a/ 8e/J	.	.	8cc#\J	.	.	.	.	.	.	.	.	.	.	.	.	.	.	.	.	.	.	.	.	.	.	.	.	.	.	.	.	.	.
*Xtremolo	*	*	*Xtremolo	*	*Xtremolo	*	*	*Xtremolo	*	*	*	*	*	*	*	*	*	*	*	*	*	*	*	*	*	*	*	*	*	*	*	*	*	*	*	*	*	*
8EE/L	#	.	8d\L	.	8g#X/L	.	.	8b\L	.	.	4E\	-nu-	.	4d\	-nu-	.	4g#X\	-nu-	.	4b\	-nu-	.	.	.	.	.	.	.	.	.	.	.	.	.	.	.	.	.
8EE/J	.	.	8d\J	.	8g#/J	.	.	8b\J	.	.	.	.	.	.	.	.	.	.	.	.	.	.	.	.	.	.	.	.	.	.	.	.	.	.	.	.	.	.
=8	=8	=8	=8	=8	=8	=8	=8	=8	=8	=8	=8	=8	=8	=8	=8	=8	=8	=8	=8	=8	=8	=8	=8	=8	=8	=8	=8	=8	=8	=8	=8	=8	=8	=8	=8	=8	=8	=8
!	!	!	!	!	!	!	!	!	!	!	!	!	!	!	!	!	!	!	!	!	!	!	!.	!LO:DY:t=fr.	!	!	!	!	!	!	!	!	!	!	!	!	!	!
4AA/	1	.	4c#\	.	4e/ 4c#/	.	.	4an/	.	.	4AA/	-i	.	4c#\	-i	.	4e\	-i	.	4an\	-i	.	8r	f	8r	f	8r	f	8r	f	8r	f	8r	f	8r	f	2.ryy	2.ryy
.	.	.	.	.	.	.	.	.	.	.	.	.	.	.	.	.	.	.	.	.	.	.	16AA/LL	.	16A/LL	.	16a/LL	.	8A/	.	8e\	.	8a\	.	8aa'\	.	.	.
.	.	.	.	.	.	.	.	.	.	.	.	.	.	.	.	.	.	.	.	.	.	.	16AA/JJ	.	16A/JJ	.	16a/JJ	.	.	.	.	.	.	.	.	.	.	.
*	*	*	*	*	*	*	*	*	*	*	*	*	*	*	*	*	*	*	*	*	*	*	*	*	*	*	*	*	*	*	*tremolo	*	*tremolo	*	*2\right	*	*	*
*	*	*	*	*	*	*	*	*	*	*	*	*	*below	*	*	*below	*	*	*	*	*	*	*tremolo	*	*tremolo	*	*tremolo	*	*tremolo	*	*2\right	*	*2\right	*	*tremolo	*	*	*
!	!	!	!	!	!	!	!	!	!	!	!	!	!	!	!	!	!	!	!	!	!	!	!LO:TX:b:t=....	!	!LO:TX:b:t=....	!	!LO:TX:b:t=....	!	!LO:TX:b:t=....	!	!LO:TX:t=....	!	!LO:TX:t=....	!	!LO:TX:t=....	!	!	!
4r	.	.	4r	.	4r	.	.	4r	.	.	4r	.	.	4r	.	.	4r	.	.	4r	.	.	8AA'/L	.	8A'/L	.	8a'/L	.	8A'/L	.	8e'\L	.	8a'\L	.	8aa'\L	.	.	.
.	.	.	.	.	.	.	.	.	.	.	.	.	.	.	.	.	.	.	.	.	.	.	8AA'/	.	8A'/	.	8a'/	.	8A'/	.	8e'\	.	8a'\	.	8aa'\	.	.	.
!:	!	!	!	!	!	!	!	!	!	!	!	!	!	!	!	!	!	!	!	!	!	!	!	!	!	!	!	!	!	!	!	!	!	!	!	!	!	!
4r	.	.	4r	.	4r	.	.	4r	.	.	4r	.	.	4r	.	.	4r	.	.	4r	.	.	8AA'/	.	8A'/	.	8a'/	.	8A'/	.	8e'\	.	8a'\	.	8aa'\	.	.	.
.	.	.	.	.	.	.	.	.	.	.	.	.	.	.	.	.	.	.	.	.	.	.	8AA'/J	.	8A'/J	.	8a'/J	.	8A'/J	.	8e'\J	.	8a'\J	.	8aa'\J	.	.	.
*	*	*	*	*	*	*	*	*	*	*	*	*	*	*	*	*	*	*	*	*	*	*	*Xtremolo	*	*Xtremolo	*	*Xtremolo	*	*Xtremolo	*	*Xtremolo	*	*Xtremolo	*	*Xtremolo	*	*	*
=9	=9	=9	=9	=9	=9	=9	=9	=9	=9	=9	=9	=9	=9	=9	=9	=9	=9	=9	=9	=9	=9	=9	=9	=9	=9	=9	=9	=9	=9	=9	=9	=9	=9	=9	=9	=9	=9	=9
!LO:TX:t=P:problem:mixed beam	!	!LO:DY:rj:t=fr&colon;	!	!LO:DY:rj:t=fr.	!	!	!LO:DY:rj:t=fr&colon;	!	!	!LO:DY:rj:t=fr.	!	!	!LO:DY:rj:t=fr.	!	!	!LO:DY:rj	!	!	!	!	!	!LO:DY:rj:b:t=fr.	!	!	!	!	!	!	!	!	!	!	!	!	!	!	!	!
8AA\L	7_ 5_	f	8c#\	f	8e/ 8c#/	.	f	8a/	.	f	2A\	et	f	2c#\	et	f	2e\	et	.	2a\	et	f	4AA/	.	2A/	.	2a/	.	2A/	.	2e\	.	2cc#\	.	2aa\	.	2.ryy	2.ryy
8C#\	.	.	4c#\	.	4e/ 4A/	.	.	4gg\	.	.	.	.	.	.	.	.	.	.	.	.	.	.	.	.	.	.	.	.	.	.	.	.	.	.	.	.	.	.
8E\	.	.	.	.	.	.	.	.	.	.	.	.	.	.	.	.	.	.	.	.	.	.	4r	.	.	.	.	.	.	.	.	.	.	.	.	.	.	.
8A\	.	.	8c#\L	.	8e/L 8A/	.	.	16ee\LL	.	.	.	.	.	.	.	.	.	.	.	.	.	.	.	.	.	.	.	.	.	.	.	.	.	.	.	.	.	.
.	.	.	.	.	.	.	.	16cc#\JJ	.	.	.	.	.	.	.	.	.	.	.	.	.	.	.	.	.	.	.	.	.	.	.	.	.	.	.	.	.	.
8AA/	.	.	8c#\	.	8e/ 8A/	.	.	16a/LL	.	.	4A\	an-	.	4e\	an-	.	4a\	an-	.	4gg\	an-	.	4AA/	.	4A/	.	4a/	.	4A/	.	4e\	.	4ee\	.	4gg\	.	.	.
.	.	.	.	.	.	.	.	16g/	.	.	.	.	.	.	.	.	.	.	.	.	.	.	.	.	.	.	.	.	.	.	.	.	.	.	.	.	.	.
8A\J	.	.	8c#\J	.	8e/J 8A/	.	.	16e/	.	.	.	.	.	.	.	.	.	.	.	.	.	.	.	.	.	.	.	.	.	.	.	.	.	.	.	.	.	.
.	.	.	.	.	.	.	.	16g/JJ	.	.	.	.	.	.	.	.	.	.	.	.	.	.	.	.	.	.	.	.	.	.	.	.	.	.	.	.	.	.
!LO:LB:g=original	!	!	!	!	!LO:LB:g=original	!	!	!	!	!	!	!	!	!	!	!	!	!	!	!	!	!	!	!	!	!	!	!	!	!	!	!	!	!	!	!	!	!
=10	=10	=10	=10	=10	=10	=10	=10	=10	=10	=10	=10	=10	=10	=10	=10	=10	=10	=10	=10	=10	=10	=10	=10	=10	=10	=10	=10	=10	=10	=10	=10	=10	=10	=10	=10	=10	=10	=10
4D\	3	.	4d\	.	4d/ 4A/	.	.	4f#/	.	.	4d\	-ti-	.	4d\	-ti-	.	4a\	-ti-	.	4ff#\	-ti-	.	8D/L	.	8d/L	.	8dd/L	.	8d/L	.	8f#\L	.	8dd\L	.	8ff#\L	.	2.ryy	2.ryy
.	.	.	.	.	.	.	.	.	.	.	.	.	.	.	.	.	.	.	.	.	.	.	16AA/L	.	16A/L	.	16a/L	.	8A/J	.	8a\J	.	8a\J	.	8aa\J	.	.	.
.	.	.	.	.	.	.	.	.	.	.	.	.	.	.	.	.	.	.	.	.	.	.	16AA/JJ	.	16A/JJ	.	16a/JJ	.	.	.	.	.	.	.	.	.	.	.
*	*	*	*	*	*	*	*	*	*	*	*	*	*	*	*	*	*	*	*	*	*	*	*tremolo	*	*tremolo	*	*tremolo	*	*tremolo	*	*tremolo	*	*tremolo	*	*tremolo	*	*	*
!	!	!	!	!	!	!	!	!	!	!	!	!	!	!	!	!	!	!	!	!	!	!	!LO:TX:b:t=....	!	!LO:TX:b:t=....	!	!LO:TX:b:t=....	!	!LO:TX:b:t=....	!	!LO:TX:t=....	!	!LO:TX:t=....	!	!LO:TX:t=....	!	!	!
4r	.	.	4r	.	4r	.	.	4r	.	.	4D/	-quum	.	4A\	-quum	.	4a\	-quum	.	4dd\	-quum	.	8AA'/L	.	8A'/L	.	8a'/L	.	8A'/L	.	8a'\L	.	8a'\L	.	8aa'\L	.	.	.
.	.	.	.	.	.	.	.	.	.	.	.	.	.	.	.	.	.	.	.	.	.	.	8AA'/	.	8A'/	.	8a'/	.	8A'/	.	8a'\	.	8a'\	.	8aa'\	.	.	.
4r	.	.	4r	.	4r	.	.	4r	.	.	4r	.	.	4r	.	.	4r	.	.	4r	.	.	8AA'/	.	8A'/	.	8a'/	.	8A'/	.	8a'\	.	8a'\	.	8aa'\	.	.	.
.	.	.	.	.	.	.	.	.	.	.	.	.	.	.	.	.	.	.	.	.	.	.	8AA'/J	.	8A'/J	.	8a'/J	.	8A'/J	.	8a'\J	.	8a'\J	.	8aa'\J	.	.	.
*	*	*	*	*	*	*	*	*	*	*	*	*	*	*	*	*	*	*	*	*	*	*	*Xtremolo	*	*Xtremolo	*	*Xtremolo	*	*Xtremolo	*	*Xtremolo	*	*Xtremolo	*	*Xtremolo	*	*	*
!	!	!	!	!	!	!	!	!LO:LB:g=original	!	!	!LO:LB:g=original	!	!	!LO:LB:g=original	!	!	!LO:LB:g=original	!	!	!LO:LB:g=original	!	!	!	!	!	!	!	!	!	!	!	!	!	!	!	!	!	!
=11	=11	=11	=11	=11	=11	=11	=11	=11	=11	=11	=11	=11	=11	=11	=11	=11	=11	=11	=11	=11	=11	=11	=11	=11	=11	=11	=11	=11	=11	=11	=11	=11	=11	=11	=11	=11	=11	=11
*	*	*	*	*	*	*	*	*	*	*	*	*	*	*	*	*	*	*	*	*	*	*	*	*	*	*	*2\right	*	*2\right	*	*	*	*	*	*	*	*	*
8AA\L	6_ 4_	.	8d\	.	8d/ 8A/	.	.	8a/	.	.	2D\	do-	.	2A\	do-	.	2f#\	do-	.	2a\	do-	.	4D/	.	2d/	.	2dd\	.	2d\	.	2f#\	.	2ff#\	.	2aa\	.	2.ryy	2.ryy
8D\	.	.	4d\	.	4f#/ 4A/	.	.	4aa\	.	.	.	.	.	.	.	.	.	.	.	.	.	.	.	.	.	.	.	.	.	.	.	.	.	.	.	.	.	.
8F#\	.	.	.	.	.	.	.	.	.	.	.	.	.	.	.	.	.	.	.	.	.	.	4r	.	.	.	.	.	.	.	.	.	.	.	.	.	.	.
8A\	.	.	8d\L	.	8f#/L 8A/	.	.	16ff#\LL	.	.	.	.	.	.	.	.	.	.	.	.	.	.	.	.	.	.	.	.	.	.	.	.	.	.	.	.	.	.
.	.	.	.	.	.	.	.	16dd\JJ	.	.	.	.	.	.	.	.	.	.	.	.	.	.	.	.	.	.	.	.	.	.	.	.	.	.	.	.	.	.
8D\	.	.	8d\	.	8f#/ 8A/	.	.	16a/LL	.	.	4D\	-cu-	.	4c#\	-cu-	.	4a\	-cu-	.	4ff#\	-cu-	.	4D/	.	4d/	.	4dd\	.	4d\	.	4f#\	.	4dd\	.	4ff#\	.	.	.
.	.	.	.	.	.	.	.	16f#/	.	.	.	.	.	.	.	.	.	.	.	.	.	.	.	.	.	.	.	.	.	.	.	.	.	.	.	.	.	.
8F#\J	.	.	8d\J	.	8f#/J 8A/	.	.	16d/	.	.	.	.	.	.	.	.	.	.	.	.	.	.	.	.	.	.	.	.	.	.	.	.	.	.	.	.	.	.
.	.	.	.	.	.	.	.	16f#/JJ	.	.	.	.	.	.	.	.	.	.	.	.	.	.	.	.	.	.	.	.	.	.	.	.	.	.	.	.	.	.
=12	=12	=12	=12	=12	=12	=12	=12	=12	=12	=12	=12	=12	=12	=12	=12	=12	=12	=12	=12	=12	=12	=12	=12	=12	=12	=12	=12	=12	=12	=12	=12	=12	=12	=12	=12	=12	=12	=12
*	*	*	*	*	*	*	*	*	*	*	*	*	*	*	*	*	*	*	*	*	*	*	*	*	*	*	*	*	*tremolo	*	*tremolo	*	*	*	*	*	*	*
!	!	!	!	!	!	!	!	!	!	!	!	!	!	!	!	!	!	!	!	!	!	!	!	!	!	!	!	!	!LO:TX:b:t=......	!	!LO:TX:t=......	!	!	!	!	!	!	!
4AA/	5 3	.	4c#\	.	4g/ 4A/	.	.	4e/	.	.	4A\	-men-	.	4c#\	-men-	.	4a\	-men-	.	4ee\	-men-	.	8AA/L	.	8A/L	.	8a/L	.	8A'/L	.	8e'\L	.	8cc#\L	.	8ee\L	.	2.ryy	2.ryy
.	.	.	.	.	.	.	.	.	.	.	.	.	.	.	.	.	.	.	.	.	.	.	16AA/L	.	16A/L	.	16a/L	.	8A'/	.	8e'\	.	8a\J	.	8aa\J	.	.	.
.	.	.	.	.	.	.	.	.	.	.	.	.	.	.	.	.	.	.	.	.	.	.	16AA/JJ	.	16A/JJ	.	16a/JJ	.	.	.	.	.	.	.	.	.	.	.
*	*	*	*	*	*	*	*	*	*	*	*	*	*	*	*	*	*	*	*	*	*	*	*tremolo	*	*tremolo	*	*tremolo	*	*	*	*	*	*tremolo	*	*tremolo	*	*	*
!	!	!	!	!	!	!	!	!	!	!	!	!	!	!	!	!	!	!	!	!	!	!	!LO:TX:b:t=....	!	!LO:TX:b:t=....	!	!LO:TX:b:t=....	!	!	!	!	!	!LO:TX:t=....	!	!LO:TX:t=....	!	!	!
4r	.	.	4r	.	4r	.	.	4r	.	.	4AA/	-tum,	.	4A\	-tum	.	4a\	-tum	.	4cc#\	-tum	.	8AA'/L	.	8A'/L	.	8a'/L	.	8A'/	.	8e'\	.	8a'\L	.	8aa'\L	.	.	.
.	.	.	.	.	.	.	.	.	.	.	.	.	.	.	.	.	.	.	.	.	.	.	8AA'/	.	8A'/	.	8a'/	.	8A'/	.	8e'\	.	8a'\	.	8aa'\	.	.	.
4r	.	.	4r	.	4r	.	.	4r	.	.	4r	.	.	4r	.	.	4r	.	.	4r	.	.	8AA'/	.	8A'/	.	8a'/	.	8A'/	.	8e'\	.	8a'\	.	8aa'\	.	.	.
.	.	.	.	.	.	.	.	.	.	.	.	.	.	.	.	.	.	.	.	.	.	.	8AA'/J	.	8A'/J	.	8a'/J	.	8A'/J	.	8e'\J	.	8a'\J	.	8aa'\J	.	.	.
*	*	*	*	*	*	*	*	*	*	*	*	*	*	*	*	*	*	*	*	*	*	*	*Xtremolo	*	*Xtremolo	*	*Xtremolo	*	*Xtremolo	*	*Xtremolo	*	*Xtremolo	*	*Xtremolo	*	*	*
=13	=13	=13	=13	=13	=13	=13	=13	=13	=13	=13	=13	=13	=13	=13	=13	=13	=13	=13	=13	=13	=13	=13	=13	=13	=13	=13	=13	=13	=13	=13	=13	=13	=13	=13	=13	=13	=13	=13
!LO:TX:t=P:problem:mixed beam	!	!	!	!	!	!	!	!	!	!	!	!	!	!	!	!	!	!	!	!	!	!	!	!	!	!	!	!	!	!	!	!	!	!	!	!	!	!
8AA\L	7_ 5_ 3_	.	8c#\	.	8e/ 8c#/	.	.	8a/	.	.	2A\	no-	.	2c#\	no-	.	2e\	no-	.	2a\	no-	.	4AA/	.	2A/	.	2a/	.	2A/	.	2e\	.	2cc#\	.	2aa\	.	2.ryy	2.ryy
8C#\	.	.	4c#\	.	4e/ 4A/	.	.	4gg\	.	.	.	.	.	.	.	.	.	.	.	.	.	.	.	.	.	.	.	.	.	.	.	.	.	.	.	.	.	.
8E\	.	.	.	.	.	.	.	.	.	.	.	.	.	.	.	.	.	.	.	.	.	.	4r	.	.	.	.	.	.	.	.	.	.	.	.	.	.	.
8A\	.	.	8c#\L	.	8e/L 8A/	.	.	16ee\LL	.	.	.	.	.	.	.	.	.	.	.	.	.	.	.	.	.	.	.	.	.	.	.	.	.	.	.	.	.	.
.	.	.	.	.	.	.	.	16cc#\JJ	.	.	.	.	.	.	.	.	.	.	.	.	.	.	.	.	.	.	.	.	.	.	.	.	.	.	.	.	.	.
8AA-/	.	.	8c#\	.	8e/ 8A/	.	.	16a/LL	.	.	4A\	-vo	.	4e\	-vo	.	4a\	-vo	.	4gg\	-vo	.	4AA/	.	4A/	.	4a/	.	4A/	.	4e\	.	4ee\	.	4gg\	.	.	.
.	.	.	.	.	.	.	.	16g/	.	.	.	.	.	.	.	.	.	.	.	.	.	.	.	.	.	.	.	.	.	.	.	.	.	.	.	.	.	.
8A\J	.	.	8c#\J	.	8e/J 8A/	.	.	16e/	.	.	.	.	.	.	.	.	.	.	.	.	.	.	.	.	.	.	.	.	.	.	.	.	.	.	.	.	.	.
.	.	.	.	.	.	.	.	16g/JJ	.	.	.	.	.	.	.	.	.	.	.	.	.	.	.	.	.	.	.	.	.	.	.	.	.	.	.	.	.	.
!	!	!	!LO:LB:g=original	!	!	!	!	!	!	!	!	!	!	!	!	!	!	!	!	!	!	!	!LO:LB:g=original	!	!	!	!	!	!	!	!	!	!	!	!	!	!	!
=14	=14	=14	=14	=14	=14	=14	=14	=14	=14	=14	=14	=14	=14	=14	=14	=14	=14	=14	=14	=14	=14	=14	=14	=14	=14	=14	=14	=14	=14	=14	=14	=14	=14	=14	=14	=14	=14	=14
8D\L	10	.	8d\L	.	16a'/LL	.	.	16ff#'\LL	.	.	(4D\	ce-	.	(4d\	ce-	.	(4a\	ce-	.	(4ff#\	ce-	.	4D/	.	4d/	.	4dd\	.	4d\	.	4f#\	.	4dd\	.	4ff#\	.	2.ryy	2.ryy
.	.	.	.	.	(16a/	.	.	(16ff#\	.	.	.	.	.	.	.	.	.	.	.	.	.	.	.	.	.	.	.	.	.	.	.	.	.	.	.	.	.	.
8D\	.	.	8d\	.	16g/)	.	.	16ee\)	.	.	.	.	.	.	.	.	.	.	.	.	.	.	.	.	.	.	.	.	.	.	.	.	.	.	.	.	.	.
.	.	.	.	.	16f#'/JJ	.	.	16dd'\JJ	.	.	.	.	.	.	.	.	.	.	.	.	.	.	.	.	.	.	.	.	.	.	.	.	.	.	.	.	.	.
8E\	6_ 3_	.	8c#\	.	(16e/LL	.	.	(16cc#\LL	.	.	4E\)	.	.	4e\)	.	.	4g\)	.	.	4cc#\)	.	.	4AA/	.	4A/	.	4a/	.	4A/	.	4e\	.	4cc#\	.	4ee\	.	.	.
.	.	.	.	.	16f#/)	.	.	16dd\)	.	.	.	.	.	.	.	.	.	.	.	.	.	.	.	.	.	.	.	.	.	.	.	.	.	.	.	.	.	.
8E\	.	.	8c#\	.	16g'/	.	.	16ee'\	.	.	.	.	.	.	.	.	.	.	.	.	.	.	.	.	.	.	.	.	.	.	.	.	.	.	.	.	.	.
.	.	.	.	.	16e'/JJ	.	.	16cc#'\JJ	.	.	.	.	.	.	.	.	.	.	.	.	.	.	.	.	.	.	.	.	.	.	.	.	.	.	.	.	.	.
8F#\	5_ 3_	.	8d\	.	4f#/	.	.	(16dd\LL	.	.	4F#\	-dat	.	4d\	-dat	.	4f#\	-dat	.	(8dd\L	-dat	.	4D/	.	4d/	.	4dd\	.	4F#/	.	4d\	.	4dd\	.	4dd\	.	.	.
.	.	.	.	.	.	.	.	16cc#\)	.	.	.	.	.	.	.	.	.	.	.	.	.	.	.	.	.	.	.	.	.	.	.	.	.	.	.	.	.	.
8F#\J	.	.	8d\J	.	.	.	.	16dd'\	.	.	.	.	.	.	.	.	.	.	.	8a\J)	.	.	.	.	.	.	.	.	.	.	.	.	.	.	.	.	.	.
.	.	.	.	.	.	.	.	16a'\JJ	.	.	.	.	.	.	.	.	.	.	.	.	.	.	.	.	.	.	.	.	.	.	.	.	.	.	.	.	.	.
!LO:LB:g=original	!	!	!	!	!LO:LB:g=original	!	!	!	!	!	!	!	!	!	!	!	!	!	!	!	!	!	!	!	!LO:LB:g=original	!	!LO:LB:g=original	!	!	!	!LO:LB:g=original	!	!	!	!LO:LB:g=original	!	!	!
=15	=15	=15	=15	=15	=15	=15	=15	=15	=15	=15	=15	=15	=15	=15	=15	=15	=15	=15	=15	=15	=15	=15	=15	=15	=15	=15	=15	=15	=15	=15	=15	=15	=15	=15	=15	=15	=15	=15
!LO:TX:t=P:problem:mixed beam	!	!	!	!	!	!	!	!	!	!	!	!	!	!	!	!	!	!	!	!	!	!	!	!	!	!	!	!	!	!	!	!	!	!	!	!	!	!
8G\L	3_	.	8G/L	.	(16a/LL	.	.	(16cc#/LL	.	.	(4G\	ri-	.	(4B\	ri-	.	(4e\	ri-	.	(4g/	ri-	.	4r	.	4r	.	4r	.	4r	.	4r	.	4ee\	.	4gg\	.	2.ryy	2.ryy
.	.	.	.	.	16g/)	.	.	16b/)	.	.	.	.	.	.	.	.	.	.	.	.	.	.	.	.	.	.	.	.	.	.	.	.	.	.	.	.	.	.
8G\	.	.	8G/J	.	16f#'/	.	.	16a'/	.	.	.	.	.	.	.	.	.	.	.	.	.	.	.	.	.	.	.	.	.	.	.	.	.	.	.	.	.	.
.	.	.	.	.	16e'/JJ	.	.	16g'/JJ	.	.	.	.	.	.	.	.	.	.	.	.	.	.	.	.	.	.	.	.	.	.	.	.	.	.	.	.	.	.
*	*	*	*tremolo	*	*	*	*	*	*	*	*	*	*	*	*	*	*	*	*	*	*	*	*	*	*	*	*	*	*	*	*	*	*	*	*	*	*	*
8A\	6_ 4_	.	8A/L	.	4d/	.	.	4f#/	.	.	4A\)	.	.	4A\)	.	.	4d\)	.	.	4f#/)	.	.	4D/	.	4f#/	.	4dd\	.	4d\	.	4f#\	.	4dd\	.	4ff#\	.	.	.
8A\	.	.	8A/	.	.	.	.	.	.	.	.	.	.	.	.	.	.	.	.	.	.	.	.	.	.	.	.	.	.	.	.	.	.	.	.	.	.	.
8AA/	5_ 3_	.	8A/	.	4c#/	.	.	4eT/	.	.	4AA/	-tu-	.	4A\	-tu-	.	4c#\	-tu-	.	4e/	-tu-	.	4AA/	.	4a/	.	4a/	.	4A/	.	4e\	.	4cc#\	.	4ee\	.	.	.
8AA/J	.	.	8A/J	.	.	.	.	.	.	.	.	.	.	.	.	.	.	.	.	.	.	.	.	.	.	.	.	.	.	.	.	.	.	.	.	.	.	.
*	*	*	*Xtremolo	*	*	*	*	*	*	*	*	*	*	*	*	*	*	*	*	*	*	*	*	*	*	*	*	*	*	*	*	*	*	*	*	*	*	*
!	!	!	!	!	!	!	!	!LO:LB:g=original	!	!	!	!	!	!	!	!	!	!	!	!	!	!	!	!	!	!	!	!	!LO:LB:g=original	!	!	!	!LO:LB:g=original	!	!	!	!	!
=16	=16	=16	=16	=16	=16	=16	=16	=16	=16	=16	=16	=16	=16	=16	=16	=16	=16	=16	=16	=16	=16	=16	=16	=16	=16	=16	=16	=16	=16	=16	=16	=16	=16	=16	=16	=16	=16	=16
4D\	1	.	4d\	.	4d/	.	.	4d/	.	.	4D/	-i	.	4A\	-i	.	4d\	-i	.	4d/	-i	.	4D/	.	4d/	.	4dd\	.	4F#/	.	4d\	.	4dd\	.	4dd\	.	2.ryy	2.ryy
8r	.	.	8r	.	8r	.	.	8r	.	.	4r	.	.	4r	.	.	4r	.	.	4r	.	.	4r	.	8r	.	8r	.	8r	.	8r	.	8r	.	8r	.	.	.
!LO:TX:t=P:problem:mixed beam	!	!	!	!	!	!	!	!	!	!	!	!	!	!	!	!	!	!	!	!	!	!	!	!	!	!	!	!	!	!	!	!	!	!	!	!	!	!
8D\L	3	.	8d\L	.	8dd'\L	.	.	8ff#'\L	.	.	.	.	.	.	.	.	.	.	.	.	.	.	.	.	8dd'\L	.	8dd'\L	.	8d'\L	.	8f#'\L	.	8dd'\L	.	8ff#'\L	.	.	.
8E\	1	.	8e\	.	8cc#'\	.	.	8ee'\	.	.	4r	.	.	4r	.	.	4r	.	.	4r	.	.	4r	.	8ee'\	.	8ee'\	.	8e'\	.	8e'\	.	8cc#'\	.	8ee'\	.	.	.
8EE/J	$	.	8E/J	.	8b'\J	.	.	8gg#X'\J	.	.	.	.	.	.	.	.	.	.	.	.	.	.	.	.	8ee'\J	.	8ee'\J	.	8e'\J	.	8e'\J	.	8b'\J	.	8gg#'\J	.	.	.
!	!	!	!	!	!	!	!	!	!	!	!	!	!	!LO:LB:g=original	!	!	!	!	!	!	!	!	!	!	!	!	!	!	!	!	!	!	!	!	!	!	!	!
=17	=17	=17	=17	=17	=17	=17	=17	=17	=17	=17	=17	=17	=17	=17	=17	=17	=17	=17	=17	=17	=17	=17	=17	=17	=17	=17	=17	=17	=17	=17	=17	=17	=17	=17	=17	=17	=17	=17
!	!	!	!LO:TX:t=P:problem:mixed beam	!LO:DY:t=p	!	!	!	!LO:TX:t=P:problem:mixed beam	!	!LO:DY:rj:t=p	!LO:TX:a:t=5.	!	!	!LO:TX:a:t=5	!	!	!LO:TX:a:t=5.	!	!	!LO:TX:a:t=1.	!	!	!	!	!	!	!	!	!	!	!	!	!	!	!	!	!	!
4AA/	8_ 3_	.	8A/L	p	8cc#/L 8e/	.	.	8aa\L	.	p	0.r	.	.	0.r	.	.	0.r	.	.	2.r	.	.	4AA/	.	4a/	.	4a/	.	4A/	.	4e\	.	4cc#\	.	4aa\	.	2.ryy	2.ryy
!	!	!	!	!	!	!	!LO:DY:rj	!	!	!	!	!	!	!	!	!	!	!	!	!	!	!	!	!	!	!	!	!	!	!	!	!	!	!	!	!	!	!
.	.	.	8a\J	.	8a/J 8e/	.	p	8cc#/J 8e/	.	.	.	.	.	.	.	.	.	.	.	.	.	.	.	.	.	.	.	.	.	.	.	.	.	.	.	.	.	.
*	*	*	*tremolo	*	*tremolo	*	*	*tremolo	*	*	*	*	*	*	*	*	*	*	*	*	*	*	*	*	*	*	*	*	*	*	*	*	*	*	*	*	*	*
!	!	!	!	!	!	!	!	!LO:TX:b:t=....	!	!	!	!	!	!	!	!	!	!	!	!	!	!	!	!	!	!	!	!	!	!	!	!	!LO:TX:a:t=Solo	!LO:DY:t=p	!LO:TX:a:t=Solo	!	!	!
4A\	.	.	8a\L	.	8a/ 8e/L	.	.	8cc#/ 8e'/L	.	.	.	.	.	.	.	.	.	.	.	.	.	.	4r	.	4r	.	4r	.	4r	.	4r	.	8r	p	8r	.	.	.
.	.	.	8a\	.	8a/ 8e/	.	.	8cc#/ 8e'/	.	.	.	.	.	.	.	.	.	.	.	.	.	.	.	.	.	.	.	.	.	.	.	.	(8E/L	.	(8e\L	.	.	.
4r	x	.	8a\	.	8a/ 8e/	.	.	8cc#/ 8e'/	.	.	.	.	.	.	.	.	.	.	.	.	.	.	4r	.	4r	.	4r	.	4r	.	4r	.	8A/	.	8a\	.	.	.
.	.	.	8a\J	.	8a/ 8e/J	.	.	8cc#/ 8e'/J	.	.	.	.	.	.	.	.	.	.	.	.	.	.	.	.	.	.	.	.	.	.	.	.	8c#/J)	.	8cc#\J)	.	.	.
!	!	!	!	!	!	!	!	!	!	!	!	!	!	!	!	!	!	!	!	!LO:LB:g=original	!	!	!	!	!	!	!	!	!	!	!	!	!	!	!	!	!	!
=18	=18	=18	=18	=18	=18	=18	=18	=18	=18	=18	=18	=18	=18	=18	=18	=18	=18	=18	=18	=18	=18	=18	=18	=18	=18	=18	=18	=18	=18	=18	=18	=18	=18	=18	=18	=18	=18	=18
!LO:TX:a:t=Tasto	!	!LO:DY:rj:t=p	!	!	!	!	!	!	!	!	!	!	!	!	!	!	!	!	!	!LO:TX:a:t=Solo	!	!	!LO:TX:a:t=7.	!	!LO:TX:a:t=7.	!	!LO:TX:a:t=7.	!	!LO:TX:a:t=7.	!	!LO:TX:a:t=7.	!	!	!	!	!	!	!
2G#X\	.	p	8r	.	8r	.	.	8r	.	.	.	.	.	.	.	.	.	.	.	2ee\	Praeſ-	.	0.r	.	0.r	.	0.r	.	0.r	.	0.r	.	8e/	.	8ee\	.	2.ryy	2.ryy
.	.	.	8g#X\	.	8b/ 8e/	.	.	8dd/ 8e/	.	.	.	.	.	.	.	.	.	.	.	.	.	.	.	.	.	.	.	.	.	.	.	.	8r	.	8r	.	.	.
!	!	!	!	!	!	!	!	!LO:TX:b:t=....	!	!	!	!	!	!	!	!	!	!	!	!	!	!	!	!	!	!	!	!	!	!	!	!	!	!	!	!	!	!
.	.	.	8g#\L	.	8b/ 8e/L	.	.	8dd/ 8e'/L	.	.	.	.	.	.	.	.	.	.	.	.	.	.	.	.	.	.	.	.	.	.	.	.	4r	.	4r	.	.	.
.	.	.	8g#\	.	8b/ 8e/	.	.	8dd/ 8e'/	.	.	.	.	.	.	.	.	.	.	.	.	.	.	.	.	.	.	.	.	.	.	.	.	.	.	.	.	.	.
4r	.	.	8g#\	.	8b/ 8e/	.	.	8dd/ 8e'/	.	.	.	.	.	.	.	.	.	.	.	(8dd\L	-tat	.	.	.	.	.	.	.	.	.	.	.	4r	.	4r	.	.	.
.	.	.	8g#\J	.	8b/ 8e/J	.	.	8dd/ 8e'/J	.	.	.	.	.	.	.	.	.	.	.	8b\J)	.	.	.	.	.	.	.	.	.	.	.	.	.	.	.	.	.	.
=19	=19	=19	=19	=19	=19	=19	=19	=19	=19	=19	=19	=19	=19	=19	=19	=19	=19	=19	=19	=19	=19	=19	=19	=19	=19	=19	=19	=19	=19	=19	=19	=19	=19	=19	=19	=19	=19	=19
2A\	.	.	8r	.	8r	.	.	8r	.	.	.	.	.	.	.	.	.	.	.	4a\	fi-	.	.	.	.	.	.	.	.	.	.	.	4r	.	4r	.	2.ryy	2.ryy
.	.	.	8a\	.	8a/ 8e/	.	.	8cc#/ 8e/	.	.	.	.	.	.	.	.	.	.	.	.	.	.	.	.	.	.	.	.	.	.	.	.	.	.	.	.	.	.
!	!	!	!	!	!	!	!	!LO:TX:b:t=....	!	!	!	!	!	!	!	!	!	!	!	!	!	!	!	!	!	!	!	!	!	!	!	!	!	!	!	!	!	!
.	.	.	8a\L	.	8a/ 8e/L	.	.	8cc#/ 8e'/L	.	.	.	.	.	.	.	.	.	.	.	4a\	-des	.	.	.	.	.	.	.	.	.	.	.	8r	.	8r	.	.	.
.	.	.	8a\	.	8a/ 8e/	.	.	8cc#/ 8e'/	.	.	.	.	.	.	.	.	.	.	.	.	.	.	.	.	.	.	.	.	.	.	.	.	(8E/L	.	(8e\L	.	.	.
4r	.	.	8a\	.	8a/ 8e/	.	.	8cc#/ 8e'/	.	.	.	.	.	.	.	.	.	.	.	4r	.	.	.	.	.	.	.	.	.	.	.	.	8A/	.	8a\	.	.	.
.	.	.	8a\J	.	8a/ 8e/J	.	.	8cc#/ 8e'/J	.	.	.	.	.	.	.	.	.	.	.	.	.	.	.	.	.	.	.	.	.	.	.	.	8c#/J)	.	8cc#\J)	.	.	.
!	!	!	!	!	!LO:LB:g=original	!	!	!	!	!	!	!	!	!	!	!	!	!	!	!	!	!	!	!	!	!	!	!	!	!	!	!	!	!	!	!	!	!
=20	=20	=20	=20	=20	=20	=20	=20	=20	=20	=20	=20	=20	=20	=20	=20	=20	=20	=20	=20	=20	=20	=20	=20	=20	=20	=20	=20	=20	=20	=20	=20	=20	=20	=20	=20	=20	=20	=20
2G#X\	.	.	8r	.	8r	.	.	8r	.	.	.	.	.	.	.	.	.	.	.	2ee\	sup-	.	.	.	.	.	.	.	.	.	.	.	8e/	.	8ee\	.	2.ryy	2.ryy
.	.	.	8g#X\	.	8b/ 8e/	.	.	8dd/ 8e/	.	.	.	.	.	.	.	.	.	.	.	.	.	.	.	.	.	.	.	.	.	.	.	.	8r	.	8r	.	.	.
.	.	.	8g#\L	.	8b/ 8e/L	.	.	8dd/ 8e/L	.	.	.	.	.	.	.	.	.	.	.	.	.	.	.	.	.	.	.	.	.	.	.	.	4r	.	4r	.	.	.
.	.	.	8g#\	.	8b/ 8e/	.	.	8dd/ 8e/	.	.	.	.	.	.	.	.	.	.	.	.	.	.	.	.	.	.	.	.	.	.	.	.	.	.	.	.	.	.
4r	.	.	8g#\	.	8b/ 8e/	.	.	8dd/ 8e/	.	.	.	.	.	.	.	.	.	.	.	(8dd\L	-le-	.	.	.	.	.	.	.	.	.	.	.	4r	.	4r	.	.	.
.	.	.	8g#\J	.	8b/ 8e/J	.	.	8dd/ 8e/J	.	.	.	.	.	.	.	.	.	.	.	8b\J)	.	.	.	.	.	.	.	.	.	.	.	.	.	.	.	.	.	.
!	!	!	!LO:LB:g=original	!	!	!	!	!	!	!	!	!	!	!	!	!	!	!	!	!	!	!	!	!	!	!	!	!	!	!	!	!	!	!	!	!	!	!
=21	=21	=21	=21	=21	=21	=21	=21	=21	=21	=21	=21	=21	=21	=21	=21	=21	=21	=21	=21	=21	=21	=21	=21	=21	=21	=21	=21	=21	=21	=21	=21	=21	=21	=21	=21	=21	=21	=21
2A\	.	.	8r	.	8r	.	.	8r	.	.	2.r	.	.	2.r	.	.	2.r	.	.	4a\	-men-	.	.	.	.	.	.	.	.	.	.	.	4r	.	4r	.	2.ryy	2.ryy
.	.	.	8a\	.	8a/ 8e/	.	.	8cc#/ 8e/	.	.	.	.	.	.	.	.	.	.	.	.	.	.	.	.	.	.	.	.	.	.	.	.	.	.	.	.	.	.
.	.	.	8a\L	.	8a/ 8e/L	.	.	8cc#/ 8e/L	.	.	.	.	.	.	.	.	.	.	.	4a\	-tum,	.	.	.	.	.	.	.	.	.	.	.	8r	.	8r	.	.	.
.	.	.	8a\	.	8a/ 8e/	.	.	8cc#/ 8e/	.	.	.	.	.	.	.	.	.	.	.	.	.	.	.	.	.	.	.	.	.	.	.	.	(8E/L	.	(8e\L	.	.	.
4r	.	.	8a\	.	8a/ 8e/	.	.	8cc#/ 8e/	.	.	.	.	.	.	.	.	.	.	.	4r	.	.	.	.	.	.	.	.	.	.	.	.	8A/	.	8a\	.	.	.
.	.	.	8a\J	.	8a/ 8e/J	.	.	8cc#/ 8e/J	.	.	.	.	.	.	.	.	.	.	.	.	.	.	.	.	.	.	.	.	.	.	.	.	8c#/J)	.	8cc#\J)	.	.	.
*	*	*	*	*	*Xtremolo	*	*	*Xtremolo	*	*	*	*	*	*	*	*	*	*	*	*	*	*	*	*	*	*	*	*	*	*	*	*	*	*	*	*	*	*
!LO:LB:g=original	!	!	!	!	!	!	!	!	!	!	!LO:LB:g=original	!	!	!	!	!	!LO:LB:g=original	!	!	!	!	!	!	!	!	!	!	!	!	!	!	!	!	!	!	!	!	!
=22	=22	=22	=22	=22	=22	=22	=22	=22	=22	=22	=22	=22	=22	=22	=22	=22	=22	=22	=22	=22	=22	=22	=22	=22	=22	=22	=22	=22	=22	=22	=22	=22	=22	=22	=22	=22	=22	=22
!	!	!	!	!	!	!	!	!	!	!	!LO:TX:a:t=Solo	!	!	!LO:TX:a:t=Solo	!	!	!LO:TX:a:t=Solo	!	!	!	!	!	!	!	!	!	!	!	!	!	!	!	!	!	!	!	!	!
2C#/	.	.	8r	.	8r	.	.	8r	.	.	2C#/	Sen-	.	2A\	sen-	.	2gn\	sen-	.	2ee\	Sen-	.	1.r	.	1.r	.	1.r	.	1.r	.	1.r	.	4e/	.	4ee\	.	2.ryy	2.ryy
.	.	.	8A/	.	8gn/	.	.	8ee\	.	.	.	.	.	.	.	.	.	.	.	.	.	.	.	.	.	.	.	.	.	.	.	.	.	.	.	.	.	.
.	.	.	8A/L	.	8g'/L	.	.	8ee'\L	.	.	.	.	.	.	.	.	.	.	.	.	.	.	.	.	.	.	.	.	.	.	.	.	4r	.	4r	.	.	.
.	.	.	8A/	.	8g'/	.	.	8ee'\	.	.	.	.	.	.	.	.	.	.	.	.	.	.	.	.	.	.	.	.	.	.	.	.	.	.	.	.	.	.
4r	.	.	8A/	.	(8f#/	.	.	(>8dd\	.	.	4C#/	-ſu-	.	4A\	-su-	.	4g\	-ſu-	.	(8dd\L	-ſu-	.	.	.	.	.	.	.	.	.	.	.	4r	.	4r	.	.	.
.	.	.	8A/J	.	8e/J)	.	.	8cc#\J)	.	.	.	.	.	.	.	.	.	.	.	8cc#\J)	.	.	.	.	.	.	.	.	.	.	.	.	.	.	.	.	.	.
!	!	!	!	!	!	!	!	!LO:LB:g=original	!	!	!	!	!	!	!	!	!	!	!	!LO:LB:g=original	!	!	!	!	!	!	!	!	!	!	!	!	!	!	!	!	!	!
=23	=23	=23	=23	=23	=23	=23	=23	=23	=23	=23	=23	=23	=23	=23	=23	=23	=23	=23	=23	=23	=23	=23	=23	=23	=23	=23	=23	=23	=23	=23	=23	=23	=23	=23	=23	=23	=23	=23
!	!	!	!	!	!	!	!	!	!	!	!	!	!	!	!	!	!	!	!	!	!	!	!	!	!	!	!	!	!	!	!	!	!LO:TX:a:t=2	!	!LO:TX:a:t=2	!	!	!
2D/	.	.	8r	.	8r	.	.	8r	.	.	2D\	-um	.	2d\	-um	.	2f#\	-um	.	2b\	-um	.	.	.	.	.	.	.	.	.	.	.	1.r	.	1.r	.	2.ryy	2.ryy
.	.	.	8d\	.	8d/	.	.	8b\	.	.	.	.	.	.	.	.	.	.	.	.	.	.	.	.	.	.	.	.	.	.	.	.	.	.	.	.	.	.
.	.	.	8d\L	.	8d'/L	.	.	8b'\L	.	.	.	.	.	.	.	.	.	.	.	.	.	.	.	.	.	.	.	.	.	.	.	.	.	.	.	.	.	.
.	.	.	8d\	.	8d'/	.	.	8b'\	.	.	.	.	.	.	.	.	.	.	.	.	.	.	.	.	.	.	.	.	.	.	.	.	.	.	.	.	.	.
4r	.	.	8d\	.	(8f#/	.	.	(8dd\	.	.	4D\	de-	.	4d\	de-	.	(8f#\L	de-	.	(8dd\L	de-	.	.	.	.	.	.	.	.	.	.	.	.	.	.	.	.	.
.	.	.	8d\J	.	8d/J)	.	.	8b\J)	.	.	.	.	.	.	.	.	8d\J)	.	.	8b\J)	.	.	.	.	.	.	.	.	.	.	.	.	.	.	.	.	.	.
=24	=24	=24	=24	=24	=24	=24	=24	=24	=24	=24	=24	=24	=24	=24	=24	=24	=24	=24	=24	=24	=24	=24	=24	=24	=24	=24	=24	=24	=24	=24	=24	=24	=24	=24	=24	=24	=24	=24
*	*	*	*	*	*tremolo	*	*	*tremolo	*	*	*	*	*	*	*	*	*	*	*	*	*	*	*	*	*	*	*	*	*	*	*	*	*	*	*	*	*	*
4E\	.	.	8e\L	.	8c#/L	.	.	8a/L	.	.	2E\	-fec-	.	2e\	-fec-	.	2c#/	-fec-	.	2a\	-fec-	.	2.r	.	2.r	.	2.r	.	2.r	.	2.r	.	.	.	.	.	2.ryy	2.ryy
.	.	.	8e\	.	8c#/	.	.	8a/	.	.	.	.	.	.	.	.	.	.	.	.	.	.	.	.	.	.	.	.	.	.	.	.	.	.	.	.	.	.
4E\	.	.	8e\	.	8c#/	.	.	8a/	.	.	.	.	.	.	.	.	.	.	.	.	.	.	.	.	.	.	.	.	.	.	.	.	.	.	.	.	.	.
.	.	.	8e\J	.	8c#/J	.	.	8a/J	.	.	.	.	.	.	.	.	.	.	.	.	.	.	.	.	.	.	.	.	.	.	.	.	.	.	.	.	.	.
*	*	*	*Xtremolo	*	*Xtremolo	*	*	*Xtremolo	*	*	*	*	*	*	*	*	*	*	*	*	*	*	*	*	*	*	*	*	*	*	*	*	*	*	*	*	*	*
4EE/	.	.	8d\L	.	8d/L 8B/	.	.	8g#X/L	.	.	4E\	-tu-	.	4d\	-tu-	.	(8B/L	-tu-	.	4g#X\	-tu-	.	.	.	.	.	.	.	.	.	.	.	.	.	.	.	.	.
.	.	.	8d\J	.	8d/J 8B/	.	.	8g#/J	.	.	.	.	.	.	.	.	8d/J)	.	.	.	.	.	.	.	.	.	.	.	.	.	.	.	.	.	.	.	.	.
!	!	!	!	!	!LO:LB:g=original	!	!	!	!	!	!	!	!	!	!	!	!	!	!	!	!	!	!	!	!	!	!	!	!	!	!	!	!	!	!	!	!	!
=25	=25	=25	=25	=25	=25	=25	=25	=25	=25	=25	=25	=25	=25	=25	=25	=25	=25	=25	=25	=25	=25	=25	=25	=25	=25	=25	=25	=25	=25	=25	=25	=25	=25	=25	=25	=25	=25	=25
!	!	!	!	!	!	!	!	!	!	!	!	!	!	!	!	!	!	!	!	!	!	!	!	!	!	!	!	!	!	!	!	!	!	!LO:DY:t=fr.	!	!	!	!
4AA/	.	.	4c#\	.	4e/ 4c#/	.	.	4a/	.	.	4AA/	-i	.	4c#\	-i	.	4e\	-i	.	4a\	-i	.	8r	f	8r	f	8r	f	8r	f	8r	f	8r	f	8r	f	2.ryy	2.ryy
.	.	.	.	.	.	.	.	.	.	.	.	.	.	.	.	.	.	.	.	.	.	.	16AA/LL	.	16A/LL	.	16a/LL	.	8A/	.	8e\	.	8a\	.	8aa'\	.	.	.
.	.	.	.	.	.	.	.	.	.	.	.	.	.	.	.	.	.	.	.	.	.	.	16AA/JJ	.	16A/JJ	.	16a/JJ	.	.	.	.	.	.	.	.	.	.	.
*	*	*	*	*	*	*	*	*	*	*	*	*	*	*	*	*	*	*	*	*	*	*	*tremolo	*	*tremolo	*	*tremolo	*	*tremolo	*	*tremolo	*	*tremolo	*	*tremolo	*	*	*
!	!	!	!	!	!	!	!	!	!	!	!	!	!	!	!	!	!	!	!	!	!	!	!LO:TX:b:t=....	!	!LO:TX:b:t=....	!	!LO:TX:b:t=....	!	!LO:TX:b:t=....	!	!LO:TX:t=....	!	!LO:TX:t=....	!	!LO:TX:t....	!	!	!
4r	.	.	4r	.	4r	.	.	4r	.	.	4r	.	.	4r	.	.	4r	.	.	4r	.	.	8AA'/L	.	8A'/L	.	8a'/L	.	8A'/L	.	8e'\L	.	8a'\L	.	8aa'\L	.	.	.
.	.	.	.	.	.	.	.	.	.	.	.	.	.	.	.	.	.	.	.	.	.	.	8AA'/	.	8A'/	.	8a'/	.	8A'/	.	8e'\	.	8a'\	.	8aa'\	.	.	.
!..	!	!	!	!	!	!	!	!	!	!	!LO:TX:b:i:t=Volti Tutti	!	!	!LO:TX:a:t=Tutti	!	!	!LO:TX:b:i:t=Volti Tutti	!	!	!LO:TX:a:t=Tutti	!	!	!	!	!	!	!	!	!	!	!	!	!	!	!	!	!	!
4r	.	.	4r	.	4r	.	.	4r	.	.	4r	.	.	4r	.	.	4r	.	.	4r	.	.	8AA'/	.	8A'/	.	8a'/	.	8A'/	.	8e'\	.	8a'\	.	8aa'\	.	.	.
.	.	.	.	.	.	.	.	.	.	.	.	.	.	.	.	.	.	.	.	.	.	.	8AA'/J	.	8A'/J	.	8a'/J	.	8A'/J	.	8e'\J	.	8a'\J	.	8aa'\J	.	.	.
*	*	*	*	*	*	*	*	*	*	*	*	*	*	*	*	*	*	*	*	*	*	*	*Xtremolo	*	*Xtremolo	*	*Xtremolo	*	*Xtremolo	*	*Xtremolo	*	*Xtremolo	*	*Xtremolo	*	*	*
!	!	!	!	!	!	!	!	!	!	!	!LO:PB:g=original	!	!	!	!	!	!LO:PB:g=original	!	!	!	!	!	!	!	!	!	!	!	!	!	!	!	!	!	!LO:LB:g=original	!	!	!
=26	=26	=26	=26	=26	=26	=26	=26	=26	=26	=26	=26	=26	=26	=26	=26	=26	=26	=26	=26	=26	=26	=26	=26	=26	=26	=26	=26	=26	=26	=26	=26	=26	=26	=26	=26	=26	=26	=26
*	*	*	*	*	*	*	*	*	*	*	*	*	*	*	*	*	*	*	*below	*	*	*	*	*	*	*	*	*	*	*	*	*	*	*	*	*	*	*
!	!	!	!	!	!	!	!	!	!	!	!	!	!	!	!	!	!LO:TX:i:t=Tutti	!	!	!	!	!	!	!	!	!	!	!	!	!	!	!	!	!	!	!	!	!
!LO:TX:t=P:problem:mixed beam	!	!LO:DY:rj:t=fr.	!	!LO:DY:rj:t=fr..	!	!	!LO:DY:rj:t=fr.	!	!	!LO:DY:rj:t=fr.	!LO:TX:a:t=Tutti	!	!LO:DY:rj:t=fr.	!	!	!LO:DY:rj	!	!	!LO:DY:rj:t=fr.	!	!	!LO:DY:b:rj	!	!	!	!	!	!	!	!	!	!	!	!	!	!	!	!
8AA\L	7_ 5_ 3_	f	8c#\	f	8e/ 8c#/	.	f	8a/	.	f	2A\	Ge-	f	2c#\	Ge-	f	2e\	Ge-	f	2a\	Ge-	f	4AA/	.	2A/	.	2a/	.	2A/	.	2e\	.	2cc#\	.	2aa\	.	2.ryy	2.ryy
8C#\	.	.	4c#\	.	4e/ 4A/	.	.	4ggn\	.	.	.	.	.	.	.	.	.	.	.	.	.	.	.	.	.	.	.	.	.	.	.	.	.	.	.	.	.	.
8E\	.	.	.	.	.	.	.	.	.	.	.	.	.	.	.	.	.	.	.	.	.	.	4r	.	.	.	.	.	.	.	.	.	.	.	.	.	.	.
8A\	.	.	8c#\L	.	8e/L 8A/	.	.	16ee\LL	.	.	.	.	.	.	.	.	.	.	.	.	.	.	.	.	.	.	.	.	.	.	.	.	.	.	.	.	.	.
.	.	.	.	.	.	.	.	16cc#\JJ	.	.	.	.	.	.	.	.	.	.	.	.	.	.	.	.	.	.	.	.	.	.	.	.	.	.	.	.	.	.
8AA/	.	.	8c#\	.	8e/ 8A/	.	.	16a/LL	.	.	4A\	-ni-	.	4e\	-ni-	.	4a\	-ni-	.	4ggn\	-ni-	.	4AA/	.	4A/	.	4a/	.	4A/	.	4e\	.	4ee\	.	4gg\	.	.	.
.	.	.	.	.	.	.	.	16g/	.	.	.	.	.	.	.	.	.	.	.	.	.	.	.	.	.	.	.	.	.	.	.	.	.	.	.	.	.	.
8A\J	.	.	8c#\J	.	8e/J 8A/	.	.	16e/	.	.	.	.	.	.	.	.	.	.	.	.	.	.	.	.	.	.	.	.	.	.	.	.	.	.	.	.	.	.
.	.	.	.	.	.	.	.	16g/JJ	.	.	.	.	.	.	.	.	.	.	.	.	.	.	.	.	.	.	.	.	.	.	.	.	.	.	.	.	.	.
!	!	!	!	!	!	!	!	!	!	!	!	!	!	!	!	!	!	!	!	!	!	!	!	!	!	!	!	!	!	!	!	!	!LO:LB:g=original	!	!	!	!	!
=27	=27	=27	=27	=27	=27	=27	=27	=27	=27	=27	=27	=27	=27	=27	=27	=27	=27	=27	=27	=27	=27	=27	=27	=27	=27	=27	=27	=27	=27	=27	=27	=27	=27	=27	=27	=27	=27	=27
4D\	3	.	4d\	.	4d/ 4A/	.	.	4f#/	.	.	4d\	-to-	.	4d\	-to-	.	4a\	-to-	.	4ff#\	-to-	.	8D/L	.	8d/L	.	8dd/L	.	8d/L	.	8f#\L	.	8dd\L	.	8ff#\L	.	2.ryy	2.ryy
.	.	.	.	.	.	.	.	.	.	.	.	.	.	.	.	.	.	.	.	.	.	.	16AA/L	.	16A/L	.	16a/L	.	8A/J	.	8a\J	.	8a\J	.	8aa\J	.	.	.
.	.	.	.	.	.	.	.	.	.	.	.	.	.	.	.	.	.	.	.	.	.	.	16AA/JJ	.	16A/JJ	.	16a/JJ	.	.	.	.	.	.	.	.	.	.	.
*	*	*	*	*	*	*	*	*	*	*	*	*	*	*	*	*	*	*	*	*	*	*	*tremolo	*	*tremolo	*	*tremolo	*	*tremolo	*	*tremolo	*	*tremolo	*	*tremolo	*	*	*
!	!	!	!	!	!	!	!	!	!	!	!	!	!	!	!	!	!	!	!	!	!	!	!LO:TX:b:t=....	!	!LO:TX:b:t=....	!	!LO:TX:b:t=....	!	!LO:TX:b:t=....	!	!LO:TX:t=....	!	!LO:TX:t=....	!	!LO:TX:t....	!	!	!
4r	.	.	4r	.	4r	.	.	4r	.	.	4D/	-ri	.	4A\	-ri,	.	4a\	-ri	.	4dd\	-ri,	.	8AA'/L	.	8A'/L	.	8a'/L	.	8A'/L	.	8a'\L	.	8a'\L	.	8aa'\L	.	.	.
.	.	.	.	.	.	.	.	.	.	.	.	.	.	.	.	.	.	.	.	.	.	.	8AA'/	.	8A'/	.	8a'/	.	8A'/	.	8a'\	.	8a'\	.	8aa'\	.	.	.
4r	.	.	4r	.	4r	.	.	4r	.	.	4r	.	.	4r	.	.	4r	.	.	4r	.	.	8AA'/	.	8A'/	.	8a'/	.	8A'/	.	8a'\	.	8a'\	.	8aa'\	.	.	.
.	.	.	.	.	.	.	.	.	.	.	.	.	.	.	.	.	.	.	.	.	.	.	8AA'/J	.	8A'/J	.	8a'/J	.	8A'/J	.	8a'\J	.	8a'\J	.	8aa'\J	.	.	.
*	*	*	*	*	*	*	*	*	*	*	*	*	*	*	*	*	*	*	*	*	*	*	*Xtremolo	*	*Xtremolo	*	*Xtremolo	*	*Xtremolo	*	*Xtremolo	*	*Xtremolo	*	*Xtremolo	*	*	*
!	!	!	!	!	!	!	!	!	!	!	!	!	!	!LO:LB:g=original	!	!	!	!	!	!	!	!	!	!	!	!	!	!	!	!	!	!	!	!	!	!	!	!
=28	=28	=28	=28	=28	=28	=28	=28	=28	=28	=28	=28	=28	=28	=28	=28	=28	=28	=28	=28	=28	=28	=28	=28	=28	=28	=28	=28	=28	=28	=28	=28	=28	=28	=28	=28	=28	=28	=28
8AA\L	6_ 4_	.	8d\	.	8d/ 8A/	.	.	8a/	.	.	2D\	ge-	.	2A\	ge-	.	2f#\	ge-	.	2a\	ge-	.	4D/	.	2d/	.	2dd\	.	2d\	.	2f#\	.	2ff#\	.	2aa\	.	2.ryy	2.ryy
8D\	.	.	4d\	.	4f#/ 4A/	.	.	4aa\	.	.	.	.	.	.	.	.	.	.	.	.	.	.	.	.	.	.	.	.	.	.	.	.	.	.	.	.	.	.
8F#\	.	.	.	.	.	.	.	.	.	.	.	.	.	.	.	.	.	.	.	.	.	.	4r	.	.	.	.	.	.	.	.	.	.	.	.	.	.	.
8A\	.	.	8d\L	.	8f#/L 8A/	.	.	16ff#\LL	.	.	.	.	.	.	.	.	.	.	.	.	.	.	.	.	.	.	.	.	.	.	.	.	.	.	.	.	.	.
.	.	.	.	.	.	.	.	16dd\JJ	.	.	.	.	.	.	.	.	.	.	.	.	.	.	.	.	.	.	.	.	.	.	.	.	.	.	.	.	.	.
8D\	.	.	8d\	.	8f#/ 8A/	.	.	16a/LL	.	.	4D\	-ni-	.	4d\	-ni-	.	4a\	-ni-	.	4ff#\	-ni-	.	4D/	.	4d/	.	4dd\	.	4d\	.	4f#\	.	4dd\	.	4ff#\	.	.	.
.	.	.	.	.	.	.	.	16f#/	.	.	.	.	.	.	.	.	.	.	.	.	.	.	.	.	.	.	.	.	.	.	.	.	.	.	.	.	.	.
8F#\J	.	.	8d\J	.	8f#/J 8A/	.	.	16d/	.	.	.	.	.	.	.	.	.	.	.	.	.	.	.	.	.	.	.	.	.	.	.	.	.	.	.	.	.	.
.	.	.	.	.	.	.	.	16f#/JJ	.	.	.	.	.	.	.	.	.	.	.	.	.	.	.	.	.	.	.	.	.	.	.	.	.	.	.	.	.	.
!LO:LB:g=original	!	!	!LO:LB:g=original	!	!	!	!	!LO:LB:g=original	!	!	!	!	!	!	!	!	!	!	!	!	!	!	!	!	!	!	!	!	!	!	!	!	!	!	!	!	!	!
=29	=29	=29	=29	=29	=29	=29	=29	=29	=29	=29	=29	=29	=29	=29	=29	=29	=29	=29	=29	=29	=29	=29	=29	=29	=29	=29	=29	=29	=29	=29	=29	=29	=29	=29	=29	=29	=29	=29
*	*	*	*	*	*	*	*	*	*	*	*	*	*	*	*	*	*	*	*	*	*	*	*	*	*	*	*	*	*tremolo	*	*tremolo	*	*	*	*	*	*	*
!	!	!	!	!	!	!	!	!	!	!	!	!	!	!	!	!	!	!	!	!	!	!	!	!	!	!	!	!	!LO:TX:b:t=......	!	!LO:TX:t=......	!	!	!	!	!	!	!
4AA/	5 3	.	4c#\	.	4g/ 4A/	.	.	4e/	.	.	4A\	-to-	.	4c#\	-to-	.	4a\	-to-	.	4ee\	-to-	.	8AA/L	.	8A/L	.	8a/L	.	8A'/L	.	8e'\L	.	8cc#\L	.	8ee\L	.	2.ryy	2.ryy
.	.	.	.	.	.	.	.	.	.	.	.	.	.	.	.	.	.	.	.	.	.	.	16AA/L	.	16A/L	.	16a/L	.	8A'/	.	8e'\	.	8a\J	.	8aa\J	.	.	.
.	.	.	.	.	.	.	.	.	.	.	.	.	.	.	.	.	.	.	.	.	.	.	16AA/JJ	.	16A/JJ	.	16a/JJ	.	.	.	.	.	.	.	.	.	.	.
*	*	*	*	*	*	*	*	*	*	*	*	*	*	*	*	*	*	*	*	*	*	*	*tremolo	*	*tremolo	*	*tremolo	*	*	*	*	*	*tremolo	*	*tremolo	*	*	*
!	!	!	!	!	!	!	!	!	!	!	!	!	!	!	!	!	!	!	!	!	!	!	!LO:TX:b:t=....	!	!LO:TX:b:t=....	!	!LO:TX:b:t=....	!	!	!	!	!	!LO:TX:t=....	!	!LO:TX:t=....	!	!	!
4r	.	.	4r	.	4r	.	.	4r	.	.	4AA/	-que	.	4A\	-que	.	4a\	-que	.	4cc#\	-que	.	8AA'/L	.	8A'/L	.	8a'/L	.	8A'/	.	8e'\	.	8a'\L	.	8aa'\L	.	.	.
.	.	.	.	.	.	.	.	.	.	.	.	.	.	.	.	.	.	.	.	.	.	.	8AA'/	.	8A'/	.	8a'/	.	8A'/	.	8e'\	.	8a'\	.	8aa'\	.	.	.
4r	.	.	4r	.	4r	.	.	4r	.	.	4r	.	.	4r	.	.	4r	.	.	4r	.	.	8AA'/	.	8A'/	.	8a'/	.	8A'/	.	8e'\	.	8a'\	.	8aa'\	.	.	.
.	.	.	.	.	.	.	.	.	.	.	.	.	.	.	.	.	.	.	.	.	.	.	8AA'/J	.	8A'/J	.	8a'/J	.	8A'/J	.	8e'\J	.	8a'\J	.	8aa'\J	.	.	.
*	*	*	*	*	*	*	*	*	*	*	*	*	*	*	*	*	*	*	*	*	*	*	*Xtremolo	*	*Xtremolo	*	*Xtremolo	*	*Xtremolo	*	*Xtremolo	*	*Xtremolo	*	*Xtremolo	*	*	*
!	!	!	!	!	!	!	!	!	!	!	!	!	!	!	!	!	!	!	!	!LO:LB:g=original	!	!	!LO:LB:g=original	!	!	!	!LO:LB:g=original	!	!	!	!	!	!	!	!	!	!	!
=30	=30	=30	=30	=30	=30	=30	=30	=30	=30	=30	=30	=30	=30	=30	=30	=30	=30	=30	=30	=30	=30	=30	=30	=30	=30	=30	=30	=30	=30	=30	=30	=30	=30	=30	=30	=30	=30	=30
8AA\L	7_ 5_ 3_	.	8c#\	.	8e/ 8c#/	.	.	8a/	.	.	2A\	laus	.	2c#\	laus	.	2e\	laus	.	2a\	Laus	.	4AA/	.	2A/	.	2a/	.	2A/	.	2e\	.	2cc#\	.	2aa\	.	2.ryy	2.ryy
8C#\	.	.	4c#\	.	4e/ 4A/	.	.	4gg\	.	.	.	.	.	.	.	.	.	.	.	.	.	.	.	.	.	.	.	.	.	.	.	.	.	.	.	.	.	.
8E\	.	.	.	.	.	.	.	.	.	.	.	.	.	.	.	.	.	.	.	.	.	.	4r	.	.	.	.	.	.	.	.	.	.	.	.	.	.	.
8A\	.	.	8c#\L	.	8e/L 8A/	.	.	16ee\LL	.	.	.	.	.	.	.	.	.	.	.	.	.	.	.	.	.	.	.	.	.	.	.	.	.	.	.	.	.	.
.	.	.	.	.	.	.	.	16cc#\JJ	.	.	.	.	.	.	.	.	.	.	.	.	.	.	.	.	.	.	.	.	.	.	.	.	.	.	.	.	.	.
!	!	!	!	!	!	!	!	!LO:TX:t=P:problem:mixed beam	!	!	!	!	!	!	!	!	!	!	!	!	!	!	!	!	!	!	!	!	!	!	!	!	!	!	!	!	!	!
8AA\	.	.	8c#\	.	8e/ 8A/	.	.	16a/LL	.	.	4A\	et	.	4e\	et	.	4a\	et	.	4gg\	et	.	4AA/	.	4A/	.	4a/	.	4A/	.	4e\	.	4ee\	.	4gg\	.	.	.
.	.	.	.	.	.	.	.	16g/	.	.	.	.	.	.	.	.	.	.	.	.	.	.	.	.	.	.	.	.	.	.	.	.	.	.	.	.	.	.
8A\J	.	.	8c#\J	.	8e/J 8A/	.	.	16e/	.	.	.	.	.	.	.	.	.	.	.	.	.	.	.	.	.	.	.	.	.	.	.	.	.	.	.	.	.	.
.	.	.	.	.	.	.	.	16gg\JJ	.	.	.	.	.	.	.	.	.	.	.	.	.	.	.	.	.	.	.	.	.	.	.	.	.	.	.	.	.	.
!	!	!	!	!	!LO:LB:g=original	!	!	!	!	!	!LO:LB:g=original	!	!	!	!	!	!LO:LB:g=original	!	!	!	!	!	!	!	!LO:LB:g=original	!	!	!	!	!	!LO:LB:g=original	!	!	!	!	!	!	!
=31	=31	=31	=31	=31	=31	=31	=31	=31	=31	=31	=31	=31	=31	=31	=31	=31	=31	=31	=31	=31	=31	=31	=31	=31	=31	=31	=31	=31	=31	=31	=31	=31	=31	=31	=31	=31	=31	=31
8D\L	10	.	8d\L	.	16a'/LL	.	.	16ff#'\LL	.	.	(4D\	ju-	.	(4d\	ju-	.	(4a\	ju-	.	(4ff#\	ju-	.	4D/	.	4d/	.	4dd\	.	4d\	.	4f#\	.	4dd\	.	4ff#\	.	2.ryy	2.ryy
.	.	.	.	.	(16a/	.	.	(16ff#\	.	.	.	.	.	.	.	.	.	.	.	.	.	.	.	.	.	.	.	.	.	.	.	.	.	.	.	.	.	.
8D\	.	.	8d\	.	16g/)	.	.	16ee\)	.	.	.	.	.	.	.	.	.	.	.	.	.	.	.	.	.	.	.	.	.	.	.	.	.	.	.	.	.	.
.	.	.	.	.	16f#'/JJ	.	.	16dd'\JJ	.	.	.	.	.	.	.	.	.	.	.	.	.	.	.	.	.	.	.	.	.	.	.	.	.	.	.	.	.	.
8E\	6_ 3_	.	8c#\	.	(16e/LL	.	.	(16cc#\LL	.	.	4E\)	.	.	4e\)	.	.	4g\)	.	.	4cc#\)	.	.	4AA/	.	4A/	.	4a/	.	4A/	.	4e\	.	4cc#\	.	4ee\	.	.	.
.	.	.	.	.	16f#/)	.	.	16dd\)	.	.	.	.	.	.	.	.	.	.	.	.	.	.	.	.	.	.	.	.	.	.	.	.	.	.	.	.	.	.
8E\	.	.	8c#\	.	16g'/	.	.	16ee'\	.	.	.	.	.	.	.	.	.	.	.	.	.	.	.	.	.	.	.	.	.	.	.	.	.	.	.	.	.	.
.	.	.	.	.	16e'/JJ	.	.	16cc#'\JJ	.	.	.	.	.	.	.	.	.	.	.	.	.	.	.	.	.	.	.	.	.	.	.	.	.	.	.	.	.	.
8F#\	6_ 3_	.	8d\	.	4f#/	.	.	(16dd\LL	.	.	4F#\	-bi-	.	4d\	-bi-	.	4f#\	-bi-	.	(8dd\L	-bi-	.	4D/	.	4d/	.	4dd\	.	4F#/	.	4d\	.	4dd\	.	4dd\	.	.	.
.	.	.	.	.	.	.	.	16cc#\)	.	.	.	.	.	.	.	.	.	.	.	.	.	.	.	.	.	.	.	.	.	.	.	.	.	.	.	.	.	.
8F#\J	.	.	8d\J	.	.	.	.	16dd'\	.	.	.	.	.	.	.	.	.	.	.	8a\J)	.	.	.	.	.	.	.	.	.	.	.	.	.	.	.	.	.	.
.	.	.	.	.	.	.	.	16a'\JJ	.	.	.	.	.	.	.	.	.	.	.	.	.	.	.	.	.	.	.	.	.	.	.	.	.	.	.	.	.	.
!	!	!	!	!	!	!	!	!	!	!	!	!	!	!	!	!	!	!	!	!	!	!	!	!	!	!	!	!	!LO:LB:g=original	!	!	!	!	!	!	!	!	!
=32	=32	=32	=32	=32	=32	=32	=32	=32	=32	=32	=32	=32	=32	=32	=32	=32	=32	=32	=32	=32	=32	=32	=32	=32	=32	=32	=32	=32	=32	=32	=32	=32	=32	=32	=32	=32	=32	=32
8G\L	3_	.	8G/L	.	(16a/LL	.	.	(16cc#\LL	.	.	(4G\	-la-	.	(4B\	-la-	.	(4e\	-la-	.	(4g/	-la-	.	4r	.	4r	.	4r	.	4r	.	4r	.	4ee\	.	4gg\	.	2.ryy	2.ryy
.	.	.	.	.	16g/)	.	.	16b\)	.	.	.	.	.	.	.	.	.	.	.	.	.	.	.	.	.	.	.	.	.	.	.	.	.	.	.	.	.	.
8G\	.	.	8G/J	.	16f#'/	.	.	16a'\	.	.	.	.	.	.	.	.	.	.	.	.	.	.	.	.	.	.	.	.	.	.	.	.	.	.	.	.	.	.
.	.	.	.	.	16e'/JJ	.	.	16g'\JJ	.	.	.	.	.	.	.	.	.	.	.	.	.	.	.	.	.	.	.	.	.	.	.	.	.	.	.	.	.	.
*	*	*	*tremolo	*	*	*	*	*	*	*	*	*	*	*	*	*	*	*	*	*	*	*	*	*	*	*	*	*	*	*	*	*	*	*	*	*	*	*
8A\	6_ 4_	.	8A/L	.	4d/	.	.	4f#/	.	.	4A\)	.	.	4A\)	.	.	4d\)	.	.	4f#/)	.	.	4D/	.	4f#/	.	4dd\	.	4d\	.	4f#\	.	4dd\	.	4ff#\	.	.	.
8A\	.	.	8A/	.	.	.	.	.	.	.	.	.	.	.	.	.	.	.	.	.	.	.	.	.	.	.	.	.	.	.	.	.	.	.	.	.	.	.
8AA/	5 3	.	8A/	.	4c#/	.	.	4eT/	.	.	4AA/	-ti-	.	4A\	-ti-	.	4c#\	-ti-	.	4e/	-ti-	.	4AA/	.	4a/	.	4ee\	.	4A/	.	4e\	.	4cc#\	.	4ee\	.	.	.
8AA/J	.	.	8A/J	.	.	.	.	.	.	.	.	.	.	.	.	.	.	.	.	.	.	.	.	.	.	.	.	.	.	.	.	.	.	.	.	.	.	.
*	*	*	*Xtremolo	*	*	*	*	*	*	*	*	*	*	*	*	*	*	*	*	*	*	*	*	*	*	*	*	*	*	*	*	*	*	*	*	*	*	*
!	!	!	!	!	!	!	!	!LO:LB:g=original	!	!	!	!	!	!	!	!	!	!	!	!	!	!	!	!	!	!	!	!	!	!	!	!	!	!	!	!	!	!
=33	=33	=33	=33	=33	=33	=33	=33	=33	=33	=33	=33	=33	=33	=33	=33	=33	=33	=33	=33	=33	=33	=33	=33	=33	=33	=33	=33	=33	=33	=33	=33	=33	=33	=33	=33	=33	=33	=33
4D\	1	.	4d\	.	8d/	.	.	16d/LL	.	.	4D/	-o	.	4A\	-o.	.	4d\	-o	.	4d/	-o	.	4D/	.	4d/	.	4dd\	.	4F#/	.	4d\	.	4dd\	.	4dd\	.	2.ryy	2.ryy
.	.	.	.	.	.	.	.	16A/	.	.	.	.	.	.	.	.	.	.	.	.	.	.	.	.	.	.	.	.	.	.	.	.	.	.	.	.	.	.
.	.	.	.	.	8r	.	.	16d/	.	.	.	.	.	.	.	.	.	.	.	.	.	.	.	.	.	.	.	.	.	.	.	.	.	.	.	.	.	.
.	.	.	.	.	.	.	.	16f#/JJ	.	.	.	.	.	.	.	.	.	.	.	.	.	.	.	.	.	.	.	.	.	.	.	.	.	.	.	.	.	.
8r	.	.	8r	.	16f#/LL	.	.	16a/LL	.	.	4r	.	.	4r	.	.	4r	.	.	4r	.	.	8r	.	8r	.	8r	.	8r	.	8r	.	8r	.	8r	.	.	.
.	.	.	.	.	16A/	.	.	16d/	.	.	.	.	.	.	.	.	.	.	.	.	.	.	.	.	.	.	.	.	.	.	.	.	.	.	.	.	.	.
8d\L	1	.	8d/L	.	16d/	.	.	16f#/	.	.	.	.	.	.	.	.	.	.	.	.	.	.	8D/L	.	8d'/L	.	8d'/L	.	8D/L	.	8D/L	.	8d/L	.	8d/L	.	.	.
.	.	.	.	.	16f#/JJ	.	.	16a/JJ	.	.	.	.	.	.	.	.	.	.	.	.	.	.	.	.	.	.	.	.	.	.	.	.	.	.	.	.	.	.
!	!	!	!	!	!	!	!	!	!	!	!	!	!	!LO:TX:b:i:t=Volti Cito	!	!	!	!	!	!	!	!	!	!	!	!	!	!	!	!	!	!	!	!	!	!	!	!
8A\	1	.	8A/	.	16a/LL	.	.	16dd/LL	.	.	4r	.	.	4r	.	.	4r	.	.	4r	.	.	8D/	.	8f#'/	.	8f#'/	.	8F#/	.	8F#/	.	8f#/	.	8f#/	.	.	.
.	.	.	.	.	16d/	.	.	16f#/	.	.	.	.	.	.	.	.	.	.	.	.	.	.	.	.	.	.	.	.	.	.	.	.	.	.	.	.	.	.
8F#\J	1	.	8F#/J	.	16f#/	.	.	16a/	.	.	.	.	.	.	.	.	.	.	.	.	.	.	8D/J	.	8a'/J	.	8a'/J	.	8A/J	.	8A/J	.	8a/J	.	8a/J	.	.	.
.	.	.	.	.	16a/JJ	.	.	16dd/JJ	.	.	.	.	.	.	.	.	.	.	.	.	.	.	.	.	.	.	.	.	.	.	.	.	.	.	.	.	.	.
!LO:LB:g=original	!	!	!	!	!LO:LB:g=original	!	!	!	!	!	!	!	!	!LO:PB:g=original	!	!	!	!	!	!	!	!	!	!	!	!	!	!	!	!	!	!	!	!	!	!	!	!
=34	=34	=34	=34	=34	=34	=34	=34	=34	=34	=34	=34	=34	=34	=34	=34	=34	=34	=34	=34	=34	=34	=34	=34	=34	=34	=34	=34	=34	=34	=34	=34	=34	=34	=34	=34	=34	=34	=34
*tremolo	*	*	*	*	*tremolo	*	*	*	*	*	*	*	*	*	*	*	*	*	*	*	*	*	*	*	*	*	*	*	*	*	*	*	*	*	*	*	*	*
!	!	!	!LO:TX:t=P:problem:mixed beam	!	!LO:TX:b:t....	!	!	!	!	!	!	!	!	!	!	!	!	!	!	!	!	!	!	!	!	!	!	!	!	!	!	!	!	!	!	!	!	!
8D\L	10	.	8D/L	.	8ccn/ 8d'/L	.	.	(4ff#\	.	.	2D\	Sa-	.	2cn\	Sa-	.	2a\	Sa-	.	2ff#\	Sa-	.	8D/L	.	8d/L	.	8dd\L	.	2D/	.	2d\	.	2ccX\	.	2dd\	.	2.ryy	2.ryy
8D\	.	.	8d\J	.	8ccn/ 8d'/	.	.	.	.	.	.	.	.	.	.	.	.	.	.	.	.	.	16D/L	.	16d/L	.	16dd\L	.	.	.	.	.	.	.	.	.	.	.
.	.	.	.	.	.	.	.	.	.	.	.	.	.	.	.	.	.	.	.	.	.	.	16D/JJ	.	16d/JJ	.	16dd\JJ	.	.	.	.	.	.	.	.	.	.	.
*	*	*	*tremolo	*	*	*	*	*	*	*	*	*	*	*	*	*	*	*	*	*	*	*	*tremolo	*	*tremolo	*	*tremolo	*	*	*	*	*	*	*	*	*	*	*
!	!	!	!	!	!	!	!	!	!	!	!	!	!	!	!	!	!	!	!	!	!	!	!LO:TX:b:t=....	!	!LO:TX:b:t=....	!	!LO:TX:t=....	!	!	!	!	!	!	!	!	!	!	!
8D\	.	.	8d\L	.	8ccn/ 8d'/	.	.	16ff#\LL	.	.	.	.	.	.	.	.	.	.	.	.	.	.	8D'/L	.	8d'/L	.	8dd'\L	.	.	.	.	.	.	.	.	.	.	.
.	.	.	.	.	.	.	.	16gg\)	.	.	.	.	.	.	.	.	.	.	.	.	.	.	.	.	.	.	.	.	.	.	.	.	.	.	.	.	.	.
8D\J	.	.	8d\	.	8ccn/ 8d'/J	.	.	16aa'\	.	.	.	.	.	.	.	.	.	.	.	.	.	.	8D'/	.	8d'/	.	8dd'\	.	.	.	.	.	.	.	.	.	.	.
.	.	.	.	.	.	.	.	16gg'\JJ	.	.	.	.	.	.	.	.	.	.	.	.	.	.	.	.	.	.	.	.	.	.	.	.	.	.	.	.	.	.
*Xtremolo	*	*	*	*	*Xtremolo	*	*	*	*	*	*	*	*	*	*	*	*	*	*	*	*	*	*	*	*	*	*	*	*	*	*	*	*	*	*	*	*	*
8cn\L	4	.	8d\	.	8a/L 8d/	.	.	16ff#\LL	.	.	4cn\	-lus	.	4d\	-lus	.	4a\	-lus	.	4ff#\	-lus	.	8D'/	.	8d'/	.	8dd'\	.	4D/	.	4d\	.	4a\	.	4ff#\	.	.	.
.	.	.	.	.	.	.	.	16dd\	.	.	.	.	.	.	.	.	.	.	.	.	.	.	.	.	.	.	.	.	.	.	.	.	.	.	.	.	.	.
8c\J	.	.	8d\J	.	8a/J 8d/	.	.	16ee\	.	.	.	.	.	.	.	.	.	.	.	.	.	.	8D'/J	.	8d'/J	.	8dd'\J	.	.	.	.	.	.	.	.	.	.	.
.	.	.	.	.	.	.	.	16ff#\JJ	.	.	.	.	.	.	.	.	.	.	.	.	.	.	.	.	.	.	.	.	.	.	.	.	.	.	.	.	.	.
*	*	*	*Xtremolo	*	*	*	*	*	*	*	*	*	*	*	*	*	*	*	*	*	*	*	*Xtremolo	*	*Xtremolo	*	*Xtremolo	*	*	*	*	*	*	*	*	*	*	*
=35	=35	=35	=35	=35	=35	=35	=35	=35	=35	=35	=35	=35	=35	=35	=35	=35	=35	=35	=35	=35	=35	=35	=35	=35	=35	=35	=35	=35	=35	=35	=35	=35	=35	=35	=35	=35	=35	=35
4B\	3	.	4d\	.	4b/ 4d/	.	.	(8gg\L	.	.	4B\	ho-	.	4d\	ho-	.	4b\	ho-	.	(8gg\L	ho-	.	4D/	.	4d/	.	4dd\	.	4D/	.	4d\	.	4b\	.	(8gg\L	.	2.ryy	2.ryy
.	.	.	.	.	.	.	.	8dd\J)	.	.	.	.	.	.	.	.	.	.	.	8dd\J)	.	.	.	.	.	.	.	.	.	.	.	.	.	.	8dd\J)	.	.	.
4G\	1	.	4d\	.	4b/ 4d/	.	.	16dd'\LL	.	.	4G\	-nor	.	4d\	-nor	.	4b\	-nor	.	4dd\	-nor	.	4D/	.	4d/	.	4dd\	.	4D/	.	4d\	.	4b\	.	4dd\	.	.	.
.	.	.	.	.	.	.	.	16dd'\	.	.	.	.	.	.	.	.	.	.	.	.	.	.	.	.	.	.	.	.	.	.	.	.	.	.	.	.	.	.
.	.	.	.	.	.	.	.	(16cc#X\	.	.	.	.	.	.	.	.	.	.	.	.	.	.	.	.	.	.	.	.	.	.	.	.	.	.	.	.	.	.
.	.	.	.	.	.	.	.	16dd\JJ)	.	.	.	.	.	.	.	.	.	.	.	.	.	.	.	.	.	.	.	.	.	.	.	.	.	.	.	.	.	.
4r	.	.	4r	.	4r	.	.	(16cc#\LL	.	.	4r	.	.	4r	.	.	4r	.	.	4r	.	.	4r	.	4r	.	4r	.	4r	.	4r	.	4r	.	4r	.	.	.
.	.	.	.	.	.	.	.	16dd\)	.	.	.	.	.	.	.	.	.	.	.	.	.	.	.	.	.	.	.	.	.	.	.	.	.	.	.	.	.	.
.	.	.	.	.	.	.	.	16bb'\	.	.	.	.	.	.	.	.	.	.	.	.	.	.	.	.	.	.	.	.	.	.	.	.	.	.	.	.	.	.
.	.	.	.	.	.	.	.	16gg'\JJ	.	.	.	.	.	.	.	.	.	.	.	.	.	.	.	.	.	.	.	.	.	.	.	.	.	.	.	.	.	.
!	!	!	!	!	!	!	!	!LO:LB:g=original	!	!	!LO:LB:g=original	!	!	!	!	!	!LO:LB:g=original	!	!	!LO:LB:g=original	!	!	!	!	!	!	!	!	!	!	!	!	!	!	!LO:LB:g=original	!	!	!
=36	=36	=36	=36	=36	=36	=36	=36	=36	=36	=36	=36	=36	=36	=36	=36	=36	=36	=36	=36	=36	=36	=36	=36	=36	=36	=36	=36	=36	=36	=36	=36	=36	=36	=36	=36	=36	=36	=36
*tremolo	*	*	*	*	*tremolo	*	*	*	*	*	*	*	*	*	*	*	*	*	*	*	*	*	*	*	*	*	*	*	*	*	*	*	*	*	*	*	*	*
!	!	!	!LO:TX:t=P:problem:mixed beam	!	!	!	!	!	!	!	!	!	!	!	!	!	!	!	!	!	!	!	!	!	!	!	!	!	!	!	!	!	!	!	!	!	!	!
8D\L	10	.	8D/L	.	8ccn/ 8d/L	.	.	4ff#\	.	.	2D\	vir-	.	2cn\	vir-	.	2a\	vir-	.	2ff#\	vir-	.	8D/L	.	8d/L	.	8dd\L	.	2D/	.	2d\	.	2ccX\	.	2ff#\	.	2.ryy	2.ryy
8D\	.	.	8d\J	.	8ccn/ 8d/	.	.	.	.	.	.	.	.	.	.	.	.	.	.	.	.	.	16D/L	.	16d/L	.	16dd\L	.	.	.	.	.	.	.	.	.	.	.
.	.	.	.	.	.	.	.	.	.	.	.	.	.	.	.	.	.	.	.	.	.	.	16D/JJ	.	16d/JJ	.	16dd\JJ	.	.	.	.	.	.	.	.	.	.	.
*	*	*	*tremolo	*	*	*	*	*	*	*	*	*	*	*	*	*	*	*	*	*	*	*	*tremolo	*	*tremolo	*	*tremolo	*	*	*	*	*	*	*	*	*	*	*
!	!	!	!	!	!	!	!	!	!	!	!	!	!	!	!	!	!	!	!	!	!	!	!LO:TX:b:t=....	!	!LO:TX:b:t=....	!	!LO:TX:t=....	!	!	!	!	!	!	!	!	!	!	!
8D\	.	.	8d\L	.	8ccn/ 8d/	.	.	(16ff#\LL	.	.	.	.	.	.	.	.	.	.	.	.	.	.	8D'/L	.	8d'/L	.	8dd'\L	.	.	.	.	.	.	.	.	.	.	.
.	.	.	.	.	.	.	.	16gg\)	.	.	.	.	.	.	.	.	.	.	.	.	.	.	.	.	.	.	.	.	.	.	.	.	.	.	.	.	.	.
8D\J	.	.	8d\	.	8ccn/ 8d/J	.	.	16aa'\	.	.	.	.	.	.	.	.	.	.	.	.	.	.	8D'/	.	8d'/	.	8dd'\	.	.	.	.	.	.	.	.	.	.	.
.	.	.	.	.	.	.	.	16gg'\JJ	.	.	.	.	.	.	.	.	.	.	.	.	.	.	.	.	.	.	.	.	.	.	.	.	.	.	.	.	.	.
*Xtremolo	*	*	*	*	*Xtremolo	*	*	*	*	*	*	*	*	*	*	*	*	*	*	*	*	*	*	*	*	*	*	*	*	*	*	*	*	*	*	*	*	*
8cn\L	4	.	8d\	.	8a/L 8d/	.	.	16ff#\LL	.	.	4cn\	-tus	.	4d\	-tus	.	4a\	-tus	.	4ff#\	-tus	.	8D'/	.	8d'/	.	8dd'\	.	4D/	.	4d\	.	4a\	.	4ff#\	.	.	.
.	.	.	.	.	.	.	.	16dd\	.	.	.	.	.	.	.	.	.	.	.	.	.	.	.	.	.	.	.	.	.	.	.	.	.	.	.	.	.	.
8c\J	.	.	8d\J	.	8a/J 8d/	.	.	16ee\	.	.	.	.	.	.	.	.	.	.	.	.	.	.	8D'/J	.	8d'/J	.	8dd'\J	.	.	.	.	.	.	.	.	.	.	.
.	.	.	.	.	.	.	.	16ff#\JJ	.	.	.	.	.	.	.	.	.	.	.	.	.	.	.	.	.	.	.	.	.	.	.	.	.	.	.	.	.	.
*	*	*	*Xtremolo	*	*	*	*	*	*	*	*	*	*	*	*	*	*	*	*	*	*	*	*Xtremolo	*	*Xtremolo	*	*Xtremolo	*	*	*	*	*	*	*	*	*	*	*
!	!	!	!LO:LB:g=original	!	!	!	!	!	!	!	!	!	!	!	!	!	!	!	!	!	!	!	!	!	!	!	!	!	!	!	!	!	!	!	!	!	!	!
=37	=37	=37	=37	=37	=37	=37	=37	=37	=37	=37	=37	=37	=37	=37	=37	=37	=37	=37	=37	=37	=37	=37	=37	=37	=37	=37	=37	=37	=37	=37	=37	=37	=37	=37	=37	=37	=37	=37
4B\	3	.	4d\	.	4b/ 4d/	.	.	(8gg\L	.	.	4B\	quo-	.	4d\	quo-	.	4b\	quo-	.	(8gg\L	quo-	.	4D/	.	4d/	.	4dd\	.	4D/	.	4d\	.	4b\	.	(8gg\L	.	2.ryy	2.ryy
.	.	.	.	.	.	.	.	8dd\J)	.	.	.	.	.	.	.	.	.	.	.	8dd\J)	.	.	.	.	.	.	.	.	.	.	.	.	.	.	8dd\J)	.	.	.
4G\	1	.	4d\	.	4b/ 4d/	.	.	16dd'\LL	.	.	4G\	-que	.	4d\	-que	.	4b\	-que	.	4dd\	-que	.	4D/	.	4d/	.	4dd\	.	4D/	.	4d\	.	4b\	.	4b\	.	.	.
.	.	.	.	.	.	.	.	16dd'\	.	.	.	.	.	.	.	.	.	.	.	.	.	.	.	.	.	.	.	.	.	.	.	.	.	.	.	.	.	.
.	.	.	.	.	.	.	.	(16cc#X\	.	.	.	.	.	.	.	.	.	.	.	.	.	.	.	.	.	.	.	.	.	.	.	.	.	.	.	.	.	.
.	.	.	.	.	.	.	.	16dd\JJ)	.	.	.	.	.	.	.	.	.	.	.	.	.	.	.	.	.	.	.	.	.	.	.	.	.	.	.	.	.	.
16E\LL	10	.	16e\LL	.	(16b/LL	.	.	(16gg\LL	.	.	4r	.	.	4r	.	.	4r	.	.	4r	.	.	4r	.	4r	.	4r	.	4r	.	4r	.	4r	.	4r	.	.	.
16F#\	8	.	16f#\	.	16a/)	.	.	16ff#\)	.	.	.	.	.	.	.	.	.	.	.	.	.	.	.	.	.	.	.	.	.	.	.	.	.	.	.	.	.	.
16G\	6	.	16g\	.	16g'/	.	.	16ee'\	.	.	.	.	.	.	.	.	.	.	.	.	.	.	.	.	.	.	.	.	.	.	.	.	.	.	.	.	.	.
16G#X\JJ	5	.	16g#X\JJ	.	16f#'/JJ	.	.	16dd'\JJ	.	.	.	.	.	.	.	.	.	.	.	.	.	.	.	.	.	.	.	.	.	.	.	.	.	.	.	.	.	.
!	!	!	!	!	!	!	!	!	!	!	!	!	!	!	!	!	!	!	!	!	!	!	!	!	!	!	!	!	!	!	!	!	!LO:LB:g=original	!	!	!	!	!
=38	=38	=38	=38	=38	=38	=38	=38	=38	=38	=38	=38	=38	=38	=38	=38	=38	=38	=38	=38	=38	=38	=38	=38	=38	=38	=38	=38	=38	=38	=38	=38	=38	=38	=38	=38	=38	=38	=38
!	!	!LO:DY:rj:t=ffr	!	!	!	!	!	!LO:TX:t=P:problem:mixed beam	!	!	!	!	!	!	!	!	!	!	!	!	!	!	!	!	!	!	!	!	!	!	!	!	!	!	!	!LO:DY:rj:t=ffr	!	!
4A\	7_ 3_	ff	4a\	.	4e/ 4A/	.	.	16cc#\LL	.	.	4.A\	sit	.	4.e\	sit	.	4.g\	sit	.	4.cc#X\	sit	.	4AA/	.	4.a/	.	4.ee\	.	4.A/	.	4.e\	.	4.a\	.	4.cc#\	ff	2.ryy	2.ryy
.	.	.	.	.	.	.	.	16A/	.	.	.	.	.	.	.	.	.	.	.	.	.	.	.	.	.	.	.	.	.	.	.	.	.	.	.	.	.	.
.	.	.	.	.	.	.	.	16c#/	.	.	.	.	.	.	.	.	.	.	.	.	.	.	.	.	.	.	.	.	.	.	.	.	.	.	.	.	.	.
.	.	.	.	.	.	.	.	16e/JJ	.	.	.	.	.	.	.	.	.	.	.	.	.	.	.	.	.	.	.	.	.	.	.	.	.	.	.	.	.	.
*	*	*	*	*	*tremolo	*	*	*	*	*	*	*	*	*	*	*	*	*	*	*	*	*	*	*	*	*	*	*	*	*	*	*	*	*	*	*	*	*
!	!	!	!	!	!LO:TX:t=....	!	!	!	!	!	!	!	!	!	!	!	!	!	!	!	!	!	!	!	!	!	!	!	!	!	!	!	!	!	!	!	!	!
8A\L	.	.	8a\L	.	8e/ 8A'/L	.	.	16a/LL	.	.	.	.	.	.	.	.	.	.	.	.	.	.	8r	.	.	.	.	.	.	.	.	.	.	.	.	.	.	.
.	.	.	.	.	.	.	.	16e/	.	.	.	.	.	.	.	.	.	.	.	.	.	.	.	.	.	.	.	.	.	.	.	.	.	.	.	.	.	.
8A\	.	.	8a\	.	8e/ 8A'/	.	.	16a/	.	.	8A\	et	.	8e\	et	.	8g\	et	.	8a\	et	.	8AA/L	.	16a/LL	.	16ee\LL	.	8A'/L	.	8e\L	.	8cc#X'\L	.	8ee'\L	.	.	.
.	.	.	.	.	.	.	.	16cc#/JJ	.	.	.	.	.	.	.	.	.	.	.	.	.	.	.	.	16a/JJ	.	16ee\JJ	.	.	.	.	.	.	.	.	.	.	.
8E\	.	.	8e\	.	8e/ 8A'/	.	.	16ee\LL	.	.	8A\	be-	.	8e\	be-	.	8g\	be-	.	8cc#\	be-	.	8AA/	.	8a/L	.	8ee\L	.	8A'/	.	8e\	.	8ee'\	.	8gg'\	.	.	.
.	.	.	.	.	.	.	.	16a\	.	.	.	.	.	.	.	.	.	.	.	.	.	.	.	.	.	.	.	.	.	.	.	.	.	.	.	.	.	.
8C#\J	.	.	8c#\J	.	8e/ 8A'/J	.	.	16cc#\	.	.	8A\	-ne-	.	8c#X\	-ne-	.	8g\	-ne-	.	8ee\	-ne-	.	8AA/J	.	8a/J	.	8ee\J	.	8A'/J	.	8e\J	.	8ee'\J	.	8gg'\J	.	.	.
.	.	.	.	.	.	.	.	16ee\JJ	.	.	.	.	.	.	.	.	.	.	.	.	.	.	.	.	.	.	.	.	.	.	.	.	.	.	.	.	.	.
*	*	*	*	*	*Xtremolo	*below	*	*	*	*	*	*	*	*	*	*	*	*	*	*	*	*	*	*	*	*	*	*	*	*	*	*	*	*	*	*	*	*
!LO:LB:g=original	!	!	!	!	!LO:LB:g=original	!	!	!LO:LB:g=original	!	!	!	!	!	!LO:LB:g=original	!	!	!	!	!	!	!	!	!LO:LB:g=original	!	!	!	!LO:LB:g=original	!	!	!	!	!	!	!	!	!	!	!
=39	=39	=39	=39	=39	=39	=39	=39	=39	=39	=39	=39	=39	=39	=39	=39	=39	=39	=39	=39	=39	=39	=39	=39	=39	=39	=39	=39	=39	=39	=39	=39	=39	=39	=39	=39	=39	=39	=39
8AA/L	3_	.	8A\L	.	(16e/LL	.	.	(16gg\LL	.	.	8.A\	-dic-	.	8.c#\	-dic-	.	8.g\	-dic-	.	8.gg\	-dic-	.	8AA/L	.	8a/L	.	8ee\L	.	8A/L	.	8e\L	.	8ee\L	.	8gg'\L	.	2.ryy	2.ryy
.	.	.	.	.	16d#X/)	1	.	16ff#\)	.	.	.	.	.	.	.	.	.	.	.	.	.	.	.	.	.	.	.	.	.	.	.	.	.	.	.	.	.	.
16C#/L	.	.	16c#\L	.	(16e/	2	.	(16gg\	.	.	.	.	.	.	.	.	.	.	.	.	.	.	8AA/J	.	8a/J	.	8ee\J	.	8A/J	.	8e\J	.	8ee\J	.	8gg'\J	.	.	.
16E/JJ	.	.	16e\JJ	.	16d#/JJ)	1	.	16ff#\JJ)	.	.	16A\	-ti-	.	16c#\	-ti-	.	16e\	-ti-	.	16gg\	-ti-	.	.	.	.	.	.	.	.	.	.	.	.	.	.	.	.	.
4A\	.	.	4a\	.	4e/	2	.	8.gg\L	.	.	4A\	-o	.	4c#\	-o	.	4e\	-o	.	4gg\	-o	.	4AA/	.	4a/	.	4ee\	.	4A/	.	4e\	.	4ee\	.	4gg\	.	.	.
.	.	.	.	.	.	.	.	16ee\Jk	.	.	.	.	.	.	.	.	.	.	.	.	.	.	.	.	.	.	.	.	.	.	.	.	.	.	.	.	.	.
4r	x	.	4r	p	4r	.	.	(16dd#X\LL	.	.	4r	.	.	4r	.	.	4r	.	.	4r	.	.	4r	.	4r	.	4r	.	4r	.	4r	.	4r	.	4r	.	.	.
.	.	.	.	.	.	.	.	16ee\)	.	.	.	.	.	.	.	.	.	.	.	.	.	.	.	.	.	.	.	.	.	.	.	.	.	.	.	.	.	.
.	.	.	.	.	.	.	.	(16ff#\	.	.	.	.	.	.	.	.	.	.	.	.	.	.	.	.	.	.	.	.	.	.	.	.	.	.	.	.	.	.
!	!	!	!	!	!	!	!	!	!	!LO:DY:t=p	!	!	!	!	!	!	!	!	!	!	!	!	!	!	!	!	!	!	!	!	!	!	!	!	!	!	!	!
.	.	.	.	.	.	.	.	16gg\JJ)	.	p	.	.	.	.	.	.	.	.	.	.	.	.	.	.	.	.	.	.	.	.	.	.	.	.	.	.	.	.
!	!	!	!	!	!	!	!	!	!	!	!LO:LB:g=original	!	!	!	!	!	!LO:LB:g=original	!	!	!	!	!	!	!	!LO:LB:g=original	!	!	!	!	!	!LO:LB:g=original	!	!	!	!	!	!	!
=40	=40	=40	=40	=40	=40	=40	=40	=40	=40	=40	=40	=40	=40	=40	=40	=40	=40	=40	=40	=40	=40	=40	=40	=40	=40	=40	=40	=40	=40	=40	=40	=40	=40	=40	=40	=40	=40	=40
*tremolo	*	*	*tremolo	*	*tremolo	*	*	*tremolo	*	*	*	*	*	*	*	*	*	*	*	*	*	*	*	*	*	*	*	*	*	*	*	*	*	*	*	*	*	*
!	!	!LO:DY:rj	!	!	!LO:TX:b:t=....	!	!LO:DY:rj	!LO:TX:t=....	!	!	!	!	!LO:DY:rj	!	!	!LO:DY:rj	!	!	!LO:DY:rj	!	!	!LO:DY:b:rj	!LO:TX:a:t=4.	!	!LO:TX:a:t=4	!	!LO:TX:a:t=4	!	!LO:TX:a:t=4.	!	!LO:TX:a:t=4.	!	!LO:TX:a:t=4.	!	!LO:TX:a:t=4.	!	!	!
8D\L	10	p	8A/L	.	8a'/L	.	p	8ff#'\L	.	.	2D\	pro-	p	2A\	pro-	p	2a\	pro-	p	2ff#\	pro-	p	0.r	.	0.r	.	0.r	.	0.r	.	0.r	.	0.r	.	0.r	.	2.ryy	2.ryy
8D\	.	.	8A/	.	8a'/	.	.	8ff#'\	.	.	.	.	.	.	.	.	.	.	.	.	.	.	.	.	.	.	.	.	.	.	.	.	.	.	.	.	.	.
8D\	.	.	8A/	.	8a'/	.	.	8ff#'\	.	.	.	.	.	.	.	.	.	.	.	.	.	.	.	.	.	.	.	.	.	.	.	.	.	.	.	.	.	.
8D\J	.	.	8A/	.	8a'/J	.	.	8ff#'\J	.	.	.	.	.	.	.	.	.	.	.	.	.	.	.	.	.	.	.	.	.	.	.	.	.	.	.	.	.	.
*Xtremolo	*	*	*	*	*Xtremolo	*	*	*Xtremolo	*	*	*	*	*	*	*	*	*	*	*	*	*	*	*	*	*	*	*	*	*	*	*	*	*	*	*	*	*	*
8E\L	6_	.	8A/	.	8g/L	.	.	8cc#\L	.	.	4E\	-ce-	.	4A\	-ce-	.	4g\	-ce-	.	4cc#\	-ce-	.	.	.	.	.	.	.	.	.	.	.	.	.	.	.	.	.
8E\J	.	.	8A/J	.	8g/J	.	.	8cc#\J	.	.	.	.	.	.	.	.	.	.	.	.	.	.	.	.	.	.	.	.	.	.	.	.	.	.	.	.	.	.
!	!	!	!	!	!	!	!	!	!	!	!	!	!	!	!	!	!	!	!	!LO:LB:g=original	!	!	!	!	!	!	!	!	!	!	!	!	!	!	!	!	!	!
=41	=41	=41	=41	=41	=41	=41	=41	=41	=41	=41	=41	=41	=41	=41	=41	=41	=41	=41	=41	=41	=41	=41	=41	=41	=41	=41	=41	=41	=41	=41	=41	=41	=41	=41	=41	=41	=41	=41
*tremolo	*	*	*	*	*tremolo	*	*	*tremolo	*	*	*	*	*	*	*	*	*	*	*	*	*	*	*	*	*	*	*	*	*	*	*	*	*	*	*	*	*	*
!	!	!	!	!	!	!	!	!LO:TX:t=....	!	!	!	!	!	!	!	!	!	!	!	!	!	!	!	!	!	!	!	!	!	!	!	!	!	!	!	!	!	!
8F#\L	6 3	.	8A/L	.	8a/L	.	.	8dd'\L	.	.	2F#\	-den-	.	2A\	-den-	.	2a\	-den-	.	2dd\	-den-	.	.	.	.	.	.	.	.	.	.	.	.	.	.	.	2.ryy	2.ryy
8F#\	.	.	8A/	.	8a/	.	.	8dd'\	.	.	.	.	.	.	.	.	.	.	.	.	.	.	.	.	.	.	.	.	.	.	.	.	.	.	.	.	.	.
8F#\	.	.	8A/	.	8a/	.	.	8dd'\	.	.	.	.	.	.	.	.	.	.	.	.	.	.	.	.	.	.	.	.	.	.	.	.	.	.	.	.	.	.
8F#\J	.	.	8A/J	.	8a/J	.	.	8dd'\J	.	.	.	.	.	.	.	.	.	.	.	.	.	.	.	.	.	.	.	.	.	.	.	.	.	.	.	.	.	.
*Xtremolo	*	*	*Xtremolo	*	*Xtremolo	*	*	*Xtremolo	*	*	*	*	*	*	*	*	*	*	*	*	*	*	*	*	*	*	*	*	*	*	*	*	*	*	*	*	*	*
8G\L	3_	.	8d\L	.	8d/L	.	.	8b\L	.	.	4G\	-ti	.	4d\	-ti	.	4d\	-ti	.	4b\	-ti	.	.	.	.	.	.	.	.	.	.	.	.	.	.	.	.	.
8G\J	.	.	8d\J	.	8d/J	.	.	8b\J	.	.	.	.	.	.	.	.	.	.	.	.	.	.	.	.	.	.	.	.	.	.	.	.	.	.	.	.	.	.
=42	=42	=42	=42	=42	=42	=42	=42	=42	=42	=42	=42	=42	=42	=42	=42	=42	=42	=42	=42	=42	=42	=42	=42	=42	=42	=42	=42	=42	=42	=42	=42	=42	=42	=42	=42	=42	=42	=42
*tremolo	*	*	*tremolo	*	*tremolo	*	*	*tremolo	*	*	*	*	*	*	*	*	*	*	*	*	*	*	*	*	*	*	*	*	*	*	*	*	*	*	*	*	*	*
!	!	!	!	!	!	!	!	!LO:TX:b:t=....	!	!	!	!	!	!	!	!	!	!	!	!	!	!	!	!	!	!	!	!	!	!	!	!	!	!	!	!	!	!
8A\L	8 5 3	.	8e\L	.	8c#/L	.	.	8a'/L	.	.	8A\	ab	.	8e\	ab	.	8c#\	ab	.	8a\	ab	.	.	.	.	.	.	.	.	.	.	.	.	.	.	.	2.ryy	2.ryy
8A\	.	.	8e\	.	8c#/	.	.	8a'/	.	.	8A\	u-	.	8e\	u-	.	8c#\	u-	.	8a\	u-	.	.	.	.	.	.	.	.	.	.	.	.	.	.	.	.	.
8A\	.	.	8e\	.	8c#/	.	.	8a'/	.	.	(4A\	-tro-	.	(4e\	-tro-	.	(4c#\	-tro-	.	(4a\	-tro-	.	.	.	.	.	.	.	.	.	.	.	.	.	.	.	.	.
8A\J	.	.	8e\J	.	8c#/J	.	.	8a'/J	.	.	.	.	.	.	.	.	.	.	.	.	.	.	.	.	.	.	.	.	.	.	.	.	.	.	.	.	.	.
*Xtremolo	*	*	*Xtremolo	*	*Xtremolo	*	*	*Xtremolo	*below	*	*	*	*	*	*	*	*	*	*	*	*	*	*	*	*	*	*	*	*	*	*	*	*	*	*	*	*	*
8A#X\L	7 3	.	8c#\L	.	8e/L	.	.	8g/L	.	.	4A#X\)	.	.	4c#\)	.	.	4e\)	.	.	4g\)	.	.	.	.	.	.	.	.	.	.	.	.	.	.	.	.	.	.
8A#\J	.	.	8c#\J	.	8e/J	.	.	8g/J	.	.	.	.	.	.	.	.	.	.	.	.	.	.	.	.	.	.	.	.	.	.	.	.	.	.	.	.	.	.
=43	=43	=43	=43	=43	=43	=43	=43	=43	=43	=43	=43	=43	=43	=43	=43	=43	=43	=43	=43	=43	=43	=43	=43	=43	=43	=43	=43	=43	=43	=43	=43	=43	=43	=43	=43	=43	=43	=43
4B\	5 3	.	4d\	.	4d/	.	.	16f#'/LL	.	.	4B\	-que	.	4d\	-que	.	4d\	-que	.	4f#/	-que	.	.	.	.	.	.	.	.	.	.	.	.	.	.	.	2.ryy	2.ryy
.	.	.	.	.	.	.	.	(16f#/	.	.	.	.	.	.	.	.	.	.	.	.	.	.	.	.	.	.	.	.	.	.	.	.	.	.	.	.	.	.
.	.	.	.	.	.	.	.	16g/)	.	<	.	.	.	.	.	.	.	.	.	.	.	.	.	.	.	.	.	.	.	.	.	.	.	.	.	.	.	.
.	.	.	.	.	.	.	.	16a'/JJ	.	.	.	.	.	.	.	.	.	.	.	.	.	.	.	.	.	.	.	.	.	.	.	.	.	.	.	.	.	.
4r	.	.	4r	.	4r	.	.	16b'\LL	.	.	4r	.	.	4r	.	.	4r	.	.	4r	.	.	.	.	.	.	.	.	.	.	.	.	.	.	.	.	.	.
.	.	.	.	.	.	.	.	16cc#'\	.	.	.	.	.	.	.	.	.	.	.	.	.	.	.	.	.	.	.	.	.	.	.	.	.	.	.	.	.	.
.	.	.	.	.	.	.	.	16dd'\	1	.	.	.	.	.	.	.	.	.	.	.	.	.	.	.	.	.	.	.	.	.	.	.	.	.	.	.	.	.
.	.	.	.	.	.	.	.	16ee'\JJ	2	.	.	.	.	.	.	.	.	.	.	.	.	.	.	.	.	.	.	.	.	.	.	.	.	.	.	.	.	.
4r	.	.	4r	.	4r	.	.	(16ff#\LL	3	.	4r	.	.	4r	.	.	4r	.	.	4r	.	.	.	.	.	.	.	.	.	.	.	.	.	.	.	.	.	.
.	.	.	.	.	.	.	.	16ee#X\)	2	.	.	.	.	.	.	.	.	.	.	.	.	.	.	.	.	.	.	.	.	.	.	.	.	.	.	.	.	.
.	.	.	.	.	.	.	.	(16ff#\	3	.	.	.	.	.	.	.	.	.	.	.	.	.	.	.	.	.	.	.	.	.	.	.	.	.	.	.	.	.
.	.	.	.	.	.	.	.	16ee#\JJ)	2	[[	.	.	.	.	.	.	.	.	.	.	.	.	.	.	.	.	.	.	.	.	.	.	.	.	.	.	.	.
!LO:LB:g=original	!	!	!	!	!LO:LB:g=original	!	!	!LO:LB:g=original	!	!	!LO:LB:g=original	!	!	!LO:LB:g=original	!	!	!	!	!	!	!	!	!	!	!	!	!	!	!	!	!	!	!	!	!	!	!	!
=44	=44	=44	=44	=44	=44	=44	=44	=44	=44	=44	=44	=44	=44	=44	=44	=44	=44	=44	=44	=44	=44	=44	=44	=44	=44	=44	=44	=44	=44	=44	=44	=44	=44	=44	=44	=44	=44	=44
*tremolo	*	*	*tremolo	*	*tremolo	*	*	*tremolo	*	*	*	*	*	*	*	*	*	*	*	*	*	*	*	*	*	*	*	*	*	*	*	*	*	*	*	*	*	*
!.	!	!LO:DY:rj:t=fr.	!	!LO:DY:rj:t=fr.	!	!	!LO:DY:rj:t=fr.	!LO:TX:t=....	!	!LO:DY:rj:t=fr&colon;	!	!	!LO:DY:rj:t=fr.	!	!	!LO:DY:rj	!	!	!LO:DY:rj	!	!	!LO:DY:rj:b:t=fr.	!	!	!	!LO:DY:rj	!	!LO:DY:rj	!	!LO:DY:rj	!	!LO:DY:rj	!	!	!	!LO:DY:rj	!	!
8D\L	10 1	f	8A/L	f	8a/L	.	f	8ff#'\L	3	f	2D\	com-	f	2A\	com-	f	2a\	com-	f	2ff#\	com-	f	4D/	.	2d/	f	2dd\	f	2d\	f	2f#\	f	2a\	.	2ff#\	f	2.ryy	2.ryy
8D\	.	.	8A/	.	8a/	.	.	8ff#'\	.	.	.	.	.	.	.	.	.	.	.	.	.	.	.	.	.	.	.	.	.	.	.	.	.	.	.	.	.	.
8D\	.	.	8A/	.	8a/	.	.	8ff#'\	.	.	.	.	.	.	.	.	.	.	.	.	.	.	4r	.	.	.	.	.	.	.	.	.	.	.	.	.	.	.
8D\J	.	.	8A/	.	8a/J	.	.	8ff#'\J	.	.	.	.	.	.	.	.	.	.	.	.	.	.	.	.	.	.	.	.	.	.	.	.	.	.	.	.	.	.
*Xtremolo	*	*	*	*	*Xtremolo	*	*	*Xtremolo	*	*	*	*	*	*	*	*	*	*	*	*	*	*	*	*	*	*	*	*	*	*	*	*	*	*	*	*	*	*
8E\L	6	.	8A/	.	8g/L	.	.	8cc#\L	o 2	.	4E\	-par	.	4A\	-par	.	4g\	-par	.	4cc#\	-par	.	4r	.	4r	.	4r	.	4A/	.	4e\	.	4g\	.	4cc#\	.	.	.
8E\J	.	.	8A/J	.	8g/J	.	.	8cc#\J	.	.	.	.	.	.	.	.	.	.	.	.	.	.	.	.	.	.	.	.	.	.	.	.	.	.	.	.	.	.
!	!	!	!	!	!	!	!	!	!	!	!	!	!	!	!	!	!LO:LB:g=original	!	!	!	!	!	!	!	!	!	!	!	!LO:LB:g=original	!	!	!	!	!	!	!	!	!
=45	=45	=45	=45	=45	=45	=45	=45	=45	=45	=45	=45	=45	=45	=45	=45	=45	=45	=45	=45	=45	=45	=45	=45	=45	=45	=45	=45	=45	=45	=45	=45	=45	=45	=45	=45	=45	=45	=45
*tremolo	*	*	*	*	*tremolo	*	*	*tremolo	*	*	*	*	*	*	*	*	*	*	*	*	*	*	*	*	*	*	*	*	*	*	*	*	*	*	*	*	*	*
8F#\L	6 3	.	8A/L	.	8a/L	.	.	8dd\L	.	.	2F#\	sit	.	2A\	sit	.	2a\	ſit	.	2dd\	ſit	.	4D/	.	2d/	.	2dd\	.	2F#/	.	2d\	.	2f#/	.	2dd\	.	2.ryy	2.ryy
8F#\	.	.	8A/	.	8a/	.	.	8dd\	.	.	.	.	.	.	.	.	.	.	.	.	.	.	.	.	.	.	.	.	.	.	.	.	.	.	.	.	.	.
8F#\	.	.	8A/	.	8a/	.	.	8dd\	.	.	.	.	.	.	.	.	.	.	.	.	.	.	4r	.	.	.	.	.	.	.	.	.	.	.	.	.	.	.
8F#\J	.	.	8A/J	.	8a/J	.	.	8dd\J	.	.	.	.	.	.	.	.	.	.	.	.	.	.	.	.	.	.	.	.	.	.	.	.	.	.	.	.	.	.
*Xtremolo	*	*	*Xtremolo	*	*Xtremolo	*	*	*Xtremolo	*	*	*	*	*	*	*	*	*	*	*	*	*	*	*	*	*	*	*	*	*	*	*	*	*	*	*	*	*	*
8G\L	3_	.	8d\L	.	8d/L	.	.	8b\L	.	.	4G\	lau-	.	4d\	lau-	.	4d\	lau-	.	4b\	lau-	.	4D/	.	4d/	.	4dd\	.	4D/	.	4d\	.	4d/	.	4b\	.	.	.
8G\J	.	.	8d\J	.	8d/J	.	.	8b\J	.	.	.	.	.	.	.	.	.	.	.	.	.	.	.	.	.	.	.	.	.	.	.	.	.	.	.	.	.	.
=46	=46	=46	=46	=46	=46	=46	=46	=46	=46	=46	=46	=46	=46	=46	=46	=46	=46	=46	=46	=46	=46	=46	=46	=46	=46	=46	=46	=46	=46	=46	=46	=46	=46	=46	=46	=46	=46	=46
*tremolo	*	*	*tremolo	*	*tremolo	*	*	*tremolo	*	*	*	*	*	*	*	*	*	*	*	*	*	*	*	*	*	*	*	*	*	*	*	*	*	*	*	*	*	*
8A\L	8 6 4	.	8e\L	.	8c#/L	.	.	8a/L	.	.	2A\	-da-	.	2e\	-da-	.	2c#\	-da-	.	2a\	-da-	.	8AA/L	.	8A/L	.	8a/L	.	2A/	.	2e\	.	2c#/	.	2a\	.	2.ryy	2.ryy
8A\	.	.	8e\	.	8c#/	.	.	8a/	.	.	.	.	.	.	.	.	.	.	.	.	.	.	16AA/L	.	16A/L	.	16a/L	.	.	.	.	.	.	.	.	.	.	.
.	.	.	.	.	.	.	.	.	.	.	.	.	.	.	.	.	.	.	.	.	.	.	16AA/JJ	.	16A/JJ	.	16a/JJ	.	.	.	.	.	.	.	.	.	.	.
*	*	*	*	*	*	*	*	*	*	*	*	*	*	*	*	*	*	*	*	*	*	*	*tremolo	*	*tremolo	*	*tremolo	*	*	*	*	*	*	*	*	*	*	*
!	!	!	!	!	!	!	!	!	!	!	!	!	!	!	!	!	!	!	!	!	!	!	!LO:TX:b:t=....	!	!LO:TX:b:t=....	!	!LO:TX:b:t=....	!	!	!	!	!	!	!	!	!	!	!
8A\	.	.	8e\	.	8c#/	.	.	8a/	.	.	.	.	.	.	.	.	.	.	.	.	.	.	8AA'/L	.	8A'/L	.	8a'/L	.	.	.	.	.	.	.	.	.	.	.
8A\J	.	.	8e\J	.	8c#/J	.	.	8a/J	.	.	.	.	.	.	.	.	.	.	.	.	.	.	8AA'/	.	8A'/	.	8a'/	.	.	.	.	.	.	.	.	.	.	.
*Xtremolo	*	*	*Xtremolo	*	*Xtremolo	*	*	*Xtremolo	*	*	*	*	*	*	*	*	*	*	*	*	*	*	*	*	*	*	*	*	*	*	*	*	*	*	*	*	*	*
8AA/L	3	.	8A/L	.	8e/L	.	.	8c#/L	.	.	4AA/	-ti-	.	4A/	-ti-	.	4e\	-ti-	.	4cc#\	-ti-	.	8AA'/	.	8A'/	.	8a'/	.	4A/	.	4e\	.	4e/	.	4cc#\	.	.	.
8AA/J	.	.	8A/J	.	8e/J	.	.	8c#/J	.	.	.	.	.	.	.	.	.	.	.	.	.	.	8AA'/J	.	8A'/J	.	8a'/J	.	.	.	.	.	.	.	.	.	.	.
*	*	*	*	*	*	*	*	*	*	*	*	*	*	*	*	*	*	*	*	*	*	*	*Xtremolo	*	*Xtremolo	*	*Xtremolo	*	*	*	*	*	*	*	*	*	*	*
!	!	!	!LO:LB:g=original	!	!	!	!	!	!	!	!	!	!	!	!	!	!	!	!	!	!	!	!	!	!	!	!	!	!	!	!	!	!	!	!	!	!	!
=47	=47	=47	=47	=47	=47	=47	=47	=47	=47	=47	=47	=47	=47	=47	=47	=47	=47	=47	=47	=47	=47	=47	=47	=47	=47	=47	=47	=47	=47	=47	=47	=47	=47	=47	=47	=47	=47	=47
4D\	1	.	4A/	.	8f#/L 8A/	.	.	4d/	.	.	4D/	-o	.	4A/	-o	.	4f#\	-o	.	4dd\	-o	.	4D/	.	4d/	.	4dd\	.	4F#/	.	4d\	.	4f#/	.	4dd\	.	2.ryy	2.ryy
.	.	.	.	.	8d/J	.	mf	.	.	.	.	.	.	.	.	.	.	.	.	.	.	.	.	.	.	.	.	.	.	.	.	.	.	.	.	.	.	.
!	!	!	!	!	!LO:TX:a:t=Solo.	!	!	!	!	!	!	!	!	!	!	!	!	!	!	!	!	!	!	!	!	!	!	!	!	!	!	!	!	!	!	!	!	!
4r	.	.	4r	.	(16d/LL	2	.	4r	.	.	4r	.	.	4r	.	.	4r	.	.	4r	.	.	4r	.	4r	.	4r	.	4r	.	4r	.	4r	.	4r	.	.	.
.	.	.	.	.	16c#X/)	1	.	.	.	.	.	.	.	.	.	.	.	.	.	.	.	.	.	.	.	.	.	.	.	.	.	.	.	.	.	.	.	.
.	.	.	.	.	16d'/	.	.	.	.	.	.	.	.	.	.	.	.	.	.	.	.	.	.	.	.	.	.	.	.	.	.	.	.	.	.	.	.	.
.	.	.	.	.	16d'/JJ	.	.	.	.	.	.	.	.	.	.	.	.	.	.	.	.	.	.	.	.	.	.	.	.	.	.	.	.	.	.	.	.	.
4r	.	.	4r	.	(16d/LL	.	.	4r	.	.	4r	.	.	4r	.	.	4r	.	.	4r	.	.	4r	.	4r	.	4r	.	4r	.	4r	.	4r	.	4r	.	.	.
.	.	.	.	.	16c#/)	.	.	.	.	.	.	.	.	.	.	.	.	.	.	.	.	.	.	.	.	.	.	.	.	.	.	.	.	.	.	.	.	.
.	.	.	.	.	16d'/	.	.	.	.	.	.	.	.	.	.	.	.	.	.	.	.	.	.	.	.	.	.	.	.	.	.	.	.	.	.	.	.	.
.	.	.	.	.	16d'/JJ	.	.	.	.	.	.	.	.	.	.	.	.	.	.	.	.	.	.	.	.	.	.	.	.	.	.	.	.	.	.	.	.	.
!	!	!	!	!	!	!	!	!	!	!	!	!	!	!	!	!	!	!	!	!LO:LB:g=original	!	!	!	!	!	!	!	!	!	!	!	!	!	!	!	!	!	!
=48	=48	=48	=48	=48	=48	=48	=48	=48	=48	=48	=48	=48	=48	=48	=48	=48	=48	=48	=48	=48	=48	=48	=48	=48	=48	=48	=48	=48	=48	=48	=48	=48	=48	=48	=48	=48	=48	=48
!	!	!LO:DY:rj:t=p	!	!LO:DY:rj	!	!	!LO:DY:rj	!	!	!LO:DY:rj:t=p	!	!	!LO:DY:rj:t=p	!	!	!LO:DY:rj:t=p	!	!	!LO:DY:rj	!	!	!	!LO:TX:a:t=3.	!	!LO:TX:a:t=3.	!	!LO:TX:a:t=3	!	!LO:TX:a:t=3	!	!LO:TX:a:t=3	!	!LO:TX:a:t=3	!	!LO:TX:a:t=3	!	!	!
2.D\	7n 5 3	p	2.A/	p	2.cn/	.	p	(16f#/LL	.	p	2.D\	a-	p	2.A/	a-	p	2.cn/	a-	p	2.f#/	a-	.	1.r	.	1.r	.	1.r	.	1.r	.	1.r	.	1.r	.	1.r	.	2.ryy	2.ryy
.	.	.	.	.	.	.	.	16g/	.	.	.	.	.	.	.	.	.	.	.	.	.	.	.	.	.	.	.	.	.	.	.	.	.	.	.	.	.	.
.	.	.	.	.	.	.	.	16a/	.	.	.	.	.	.	.	.	.	.	.	.	.	.	.	.	.	.	.	.	.	.	.	.	.	.	.	.	.	.
.	.	.	.	.	.	.	.	16b/JJ	.	.	.	.	.	.	.	.	.	.	.	.	.	.	.	.	.	.	.	.	.	.	.	.	.	.	.	.	.	.
.	.	.	.	.	.	.	.	16ccn/LL	.	.	.	.	.	.	.	.	.	.	.	.	.	.	.	.	.	.	.	.	.	.	.	.	.	.	.	.	.	.
.	.	.	.	.	.	.	.	16b/	.	.	.	.	.	.	.	.	.	.	.	.	.	.	.	.	.	.	.	.	.	.	.	.	.	.	.	.	.	.
.	.	.	.	.	.	.	.	16a/	.	.	.	.	.	.	.	.	.	.	.	.	.	.	.	.	.	.	.	.	.	.	.	.	.	.	.	.	.	.
.	.	.	.	.	.	.	.	16g/JJ	.	.	.	.	.	.	.	.	.	.	.	.	.	.	.	.	.	.	.	.	.	.	.	.	.	.	.	.	.	.
.	.	.	.	.	.	.	.	(16f#/LL)	.	.	.	.	.	.	.	.	.	.	.	.	.	.	.	.	.	.	.	.	.	.	.	.	.	.	.	.	.	.
.	.	.	.	.	.	.	.	16a/	4	.	.	.	.	.	.	.	.	.	.	.	.	.	.	.	.	.	.	.	.	.	.	.	.	.	.	.	.	.
.	.	.	.	.	.	.	.	16dd/	o 4	.	.	.	.	.	.	.	.	.	.	.	.	.	.	.	.	.	.	.	.	.	.	.	.	.	.	.	.	.
.	.	.	.	.	.	.	.	16f#/JJ)	.	.	.	.	.	.	.	.	.	.	.	.	.	.	.	.	.	.	.	.	.	.	.	.	.	.	.	.	.	.
!	!	!	!	!	!LO:LB:g=original	!	!	!LO:LB:g=original	!	!	!	!	!	!	!	!	!	!	!	!	!	!	!	!	!	!	!	!	!	!	!	!	!	!	!	!	!	!
=49	=49	=49	=49	=49	=49	=49	=49	=49	=49	=49	=49	=49	=49	=49	=49	=49	=49	=49	=49	=49	=49	=49	=49	=49	=49	=49	=49	=49	=49	=49	=49	=49	=49	=49	=49	=49	=49	=49
4D\	6 4	.	4G/	.	8B/L	.	mf	4g/	.	.	4D\	-men,	.	4G/	-men,	.	4B/	-men,	.	4g/	-men,	.	.	.	.	.	.	.	.	.	.	.	.	.	.	.	2.ryy	2.ryy
.	.	.	.	.	8d/J	2	.	.	.	.	.	.	.	.	.	.	.	.	.	.	.	.	.	.	.	.	.	.	.	.	.	.	.	.	.	.	.	.
4r	.	.	4r	.	(16d/LL	.	.	4r	.	.	4r	.	.	4r	.	.	4r	.	.	4r	.	.	.	.	.	.	.	.	.	.	.	.	.	.	.	.	.	.
.	.	.	.	.	16c#X/)	.	.	.	.	.	.	.	.	.	.	.	.	.	.	.	.	.	.	.	.	.	.	.	.	.	.	.	.	.	.	.	.	.
.	.	.	.	.	16d'/	.	.	.	.	.	.	.	.	.	.	.	.	.	.	.	.	.	.	.	.	.	.	.	.	.	.	.	.	.	.	.	.	.
.	.	.	.	.	16d'/JJ	.	.	.	.	.	.	.	.	.	.	.	.	.	.	.	.	.	.	.	.	.	.	.	.	.	.	.	.	.	.	.	.	.
4r	.	.	4r	.	(16d/LL	.	.	4r	.	.	4r	.	.	4r	.	.	4r	.	.	4r	.	.	.	.	.	.	.	.	.	.	.	.	.	.	.	.	.	.
.	.	.	.	.	16c#/)	.	.	.	.	.	.	.	.	.	.	.	.	.	.	.	.	.	.	.	.	.	.	.	.	.	.	.	.	.	.	.	.	.
.	.	.	.	.	16d'/	.	.	.	.	.	.	.	.	.	.	.	.	.	.	.	.	.	.	.	.	.	.	.	.	.	.	.	.	.	.	.	.	.
.	.	.	.	.	16d'/JJ	.	.	.	.	.	.	.	.	.	.	.	.	.	.	.	.	.	.	.	.	.	.	.	.	.	.	.	.	.	.	.	.	.
!LO:LB:g=original	!	!	!	!	!	!	!	!	!	!	!LO:LB:g=original	!	!	!LO:LB:g=original	!	!	!	!	!	!	!	!	!	!	!	!	!	!	!	!	!	!	!	!	!	!	!	!
=50	=50	=50	=50	=50	=50	=50	=50	=50	=50	=50	=50	=50	=50	=50	=50	=50	=50	=50	=50	=50	=50	=50	=50	=50	=50	=50	=50	=50	=50	=50	=50	=50	=50	=50	=50	=50	=50	=50
!	!	!	!	!	!	!	!LO:DY:rj	!	!	!	!	!	!	!	!	!	!	!	!	!	!	!	!	!	!	!	!	!	!	!	!	!	!	!	!	!	!	!
2.D\	7 4 2	.	2.A/	.	2e/ 2A/	.	p	(16cc#X\LL	.	.	2.D\	a-	.	2.A\	a-	.	2.e\	a-	.	2.cc#X\	a-	.	2.r	.	2.r	.	2.r	.	2.r	.	2.r	.	2.r	.	2.r	.	2.ryy	2.ryy
.	.	.	.	.	.	.	.	16dd\	.	.	.	.	.	.	.	.	.	.	.	.	.	.	.	.	.	.	.	.	.	.	.	.	.	.	.	.	.	.
.	.	.	.	.	.	.	.	16ee\	.	.	.	.	.	.	.	.	.	.	.	.	.	.	.	.	.	.	.	.	.	.	.	.	.	.	.	.	.	.
.	.	.	.	.	.	.	.	16ff#\JJ	.	.	.	.	.	.	.	.	.	.	.	.	.	.	.	.	.	.	.	.	.	.	.	.	.	.	.	.	.	.
.	.	.	.	.	.	.	.	16gg\LL	.	.	.	.	.	.	.	.	.	.	.	.	.	.	.	.	.	.	.	.	.	.	.	.	.	.	.	.	.	.
.	.	.	.	.	.	.	.	16ff#\	.	.	.	.	.	.	.	.	.	.	.	.	.	.	.	.	.	.	.	.	.	.	.	.	.	.	.	.	.	.
.	.	.	.	.	.	.	.	16ee\	.	.	.	.	.	.	.	.	.	.	.	.	.	.	.	.	.	.	.	.	.	.	.	.	.	.	.	.	.	.
.	.	.	.	.	.	.	.	16dd\JJ)	.	.	.	.	.	.	.	.	.	.	.	.	.	.	.	.	.	.	.	.	.	.	.	.	.	.	.	.	.	.
.	.	.	.	.	4g/ 4A/	.	.	(16cc#\LL	.	.	.	.	.	.	.	.	.	.	.	.	.	.	.	.	.	.	.	.	.	.	.	.	.	.	.	.	.	.
.	.	.	.	.	.	.	.	16ee\	4	.	.	.	.	.	.	.	.	.	.	.	.	.	.	.	.	.	.	.	.	.	.	.	.	.	.	.	.	.
.	.	.	.	.	.	.	.	16aa\	o 4	.	.	.	.	.	.	.	.	.	.	.	.	.	.	.	.	.	.	.	.	.	.	.	.	.	.	.	.	.
.	.	.	.	.	.	.	.	16cc#\JJ)	.	.	.	.	.	.	.	.	.	.	.	.	.	.	.	.	.	.	.	.	.	.	.	.	.	.	.	.	.	.
!	!	!	!	!	!	!	!	!	!	!	!	!	!	!	!	!	!LO:LB:g=original	!	!	!	!	!	!	!	!	!	!	!	!	!	!	!	!	!	!	!	!	!
=51	=51	=51	=51	=51	=51	=51	=51	=51	=51	=51	=51	=51	=51	=51	=51	=51	=51	=51	=51	=51	=51	=51	=51	=51	=51	=51	=51	=51	=51	=51	=51	=51	=51	=51	=51	=51	=51	=51
*	*	*	*	*	*	*	*	*	*^	*	*	*	*	*	*	*	*	*	*	*	*	*	*	*	*	*	*	*	*	*	*	*	*	*	*	*	*	*
*	*	*	*	*	*	*	*	*	*above	*below	*	*	*	*	*	*	*	*	*	*	*	*	*	*	*	*	*	*	*	*	*	*	*	*	*	*	*	*	*
4D\	8 5 3	.	4A/	.	4f#/ 4A/	.	.	4dd\	.	.	.	4D\	-men,	.	4A\	-men,	.	4f#\	-men,	.	4dd\	-men,	.	4r	.	4r	.	4r	.	4r	.	4r	.	4r	.	4r	.	2.ryy	2.ryy
!	!	!	!	!	!	!	!LO:DY:t=fr&colon;	!	!	!	!LO:DY:t=fr&colon;	!	!	!	!	!	!	!	!	!	!	!	!	!	!	!	!	!	!	!	!	!	!	!	!	!	!	!	!
4r	.	.	4r	.	4r	.	f	4r	.	.	f	4r	.	.	4r	.	.	4r	.	.	4r	.	.	4r	.	4r	.	4r	.	4r	.	4r	.	4r	.	4r	.	.	.
!.	!	!LO:DY:rj:t=fr.	!	!LO:DY:rj	!	!	!	!	!	!	!	!	!	!LO:DY:rj	!	!	!LO:DY:rj	!	!	!LO:DY:rj	!	!	!LO:DY:rj:b	!	!LO:DY:rj	!	!LO:DY:rj	!	!LO:DY:rj	!	!LO:DY:rj	!	!LO:DY:rj	!	!LO:DY:rj	!	!LO:DY:rj	!	!
4A\	5 3	f	4A/	f	4gg\ 4a\	.	.	4ccc#\ 4ee\ 4a\	3	2	.	4A\	a-	f	4c#\	a-	f	4g\	a-	f	4ee\	a-	f	4AA/	f	4a/	f	4a/	f	4A/	f	4e\	f	4cc#\	f	4ee\	f	.	.
=52	=52	=52	=52	=52	=52	=52	=52	=52	=52	=52	=52	=52	=52	=52	=52	=52	=52	=52	=52	=52	=52	=52	=52	=52	=52	=52	=52	=52	=52	=52	=52	=52	=52	=52	=52	=52	=52	=52	=52
4D\	8 5 3	.	4d/ 4A/	.	4ff#/ 4a/ 4d/	.	.	4ddd\ 4ff#\ 4a\	4	3	.	4D\	-men	.	4d\	-men	.	4a\	-men.	.	4ff#\	-men.	.	4D/	.	4f#/	.	4dd\	.	4F#/	.	4d\	.	4dd\	.	4ff#\	.	2.ryy	2.ryy
4r	.	.	4r	.	4r	.	.	4r	.	.	.	4r	.	.	4r	.	.	4r	.	.	4r	.	.	4r	.	4r	.	4r	.	4r	.	4r	.	4r	.	4r	.	.	.
!	!	!	!LO:TX:b:i:t=Volti Nro 3.	!	!	!	!	!	!	!	!	!	!	!	!	!	!	!	!	!	!	!	!	!	!	!	!	!	!	!	!	!	!	!	!	!	!	!	!
4r	.	.	4r	.	4r	.	.	4r	.	.	.	4r	.	.	4r	.	.	4r	.	.	4r	.	.	4r	.	4r	.	4r	.	4r	.	4r	.	4r	.	4r	.	.	.
*	*	*	*	*	*	*	*	*	*v	*v	*	*	*	*	*	*	*	*	*	*	*	*	*	*	*	*	*	*	*	*	*	*	*	*	*	*	*	*	*
==	==	==	==	==	==	==	==	==	==	==	==	==	==	==	==	==	==	==	==	==	==	==	==	==	==	==	==	==	==	==	==	==	==	==	==	==	==	==
*-	*-	*-	*-	*-	*-	*-	*-	*-	*-	*-	*-	*-	*-	*-	*-	*-	*-	*-	*-	*-	*-	*-	*-	*-	*-	*-	*-	*-	*-	*-	*-	*-	*-	*-	*-	*-	*-	*-
!!!system-decoration: [(s1,s2,s3,s4)][(s5,s6,s7,s8)][(s9)][(s10,s11,s12,s13)][(s14,s15,s16)][(s17)]
!!!ENC: Marcin Jachim
!!!END: 2020-10-15
!!!RDF**dynam: f = fr
!!!RDF**dynam: p = p.
!!!RDF**kern: > = above
!!!RDF**kern: < = below
!!!EED: Andrzej Borzym
!!!EST: 2022-01-22
